; generated by Slic3r 1.3.1-dev on 2020-04-17 at 14:57:48

; external perimeters extrusion width = 0.44mm (3.94mm^3/s)
; perimeters extrusion width = 0.48mm (8.80mm^3/s)
; infill extrusion width = 0.48mm (8.80mm^3/s)
; solid infill extrusion width = 0.48mm (2.51mm^3/s)
; top infill extrusion width = 0.48mm (1.88mm^3/s)

M107
M190 S50 ; set bed temperature and wait for it to be reached
M104 S205 ; set temperature
G28 ; home all axes
G1 Z5 F5000 ; lift nozzle

; Filament gcode

M109 S205 ; set temperature and wait for it to be reached
G21 ; set units to millimeters
G90 ; use absolute coordinates
M82 ; use absolute distances for extrusion
G92 E0
G92 E0
G1 Z0.300 F6000.000
G1 E-2.00000 F3000.00000
G92 E0
G1 X19.265 Y84.144 F6000.000
G1 E2.00000 F3000.00000
G1 F1800
G1 X20.165 Y83.965 E2.06128
G1 X32.062 Y82.398 E2.86292
G1 X55.858 Y79.266 E4.46638
G1 X56.767 Y79.206 E4.52721
G1 X81.164 Y79.157 E6.15708
G1 X118.836 Y79.157 E8.67377
G1 X143.233 Y79.206 E10.30364
G1 X144.142 Y79.266 E10.36447
G1 X179.835 Y83.965 E12.76957
G1 X180.735 Y84.144 E12.83085
G1 X181.492 Y84.346 E12.88321
G1 X183.208 Y85.056 E13.00728
G1 X183.887 Y85.448 E13.05962
G1 X185.347 Y86.570 E13.18263
G1 X185.901 Y87.124 E13.23498
G1 X187.027 Y88.591 E13.35853
G1 X187.418 Y89.269 E13.41082
G1 X188.121 Y90.967 E13.53360
G1 X188.324 Y91.724 E13.58596
G1 X188.566 Y93.558 E13.70952
G1 X188.566 Y170.341 E18.83904
G1 X188.506 Y171.264 E18.90083
G1 X185.761 Y192.113 E20.30568
G1 X185.582 Y193.015 E20.36714
G1 X185.380 Y193.771 E20.41942
G1 X184.670 Y195.485 E20.54335
G1 X184.278 Y196.163 E20.59567
G1 X183.156 Y197.624 E20.71870
G1 X182.602 Y198.178 E20.77105
G1 X181.141 Y199.300 E20.89408
G1 X180.463 Y199.692 E20.94640
G1 X178.747 Y200.402 E21.07049
G1 X177.990 Y200.604 E21.12283
G1 X176.167 Y200.843 E21.24567
G1 X23.833 Y200.843 E31.42240
G1 X22.010 Y200.604 E31.54525
G1 X21.253 Y200.402 E31.59759
G1 X19.537 Y199.692 E31.72167
G1 X18.859 Y199.300 E31.77399
G1 X17.398 Y198.178 E31.89702
G1 X16.844 Y197.624 E31.94936
G1 X15.722 Y196.163 E32.07240
G1 X15.330 Y195.485 E32.12472
G1 X14.620 Y193.771 E32.24865
G1 X14.418 Y193.015 E32.30094
G1 X14.239 Y192.113 E32.36239
G1 X11.494 Y171.264 E33.76723
G1 X11.434 Y170.341 E33.82903
G1 X11.434 Y93.558 E38.95855
G1 X11.676 Y91.724 E39.08212
G1 X11.879 Y90.968 E39.13442
G1 X12.582 Y89.269 E39.25725
G1 X12.973 Y88.591 E39.30954
G1 X14.099 Y87.124 E39.43309
G1 X14.653 Y86.570 E39.48544
G1 X16.114 Y85.448 E39.60846
G1 X16.792 Y85.056 E39.66079
G1 X18.508 Y84.346 E39.78488
G1 X19.207 Y84.159 E39.83321
G1 X19.403 Y84.661 F6000.000
G1 F1800
G1 X20.235 Y84.496 E39.88985
G1 X32.132 Y82.929 E40.69149
G1 X55.928 Y79.797 E42.29495
G1 X56.768 Y79.741 E42.35117
G1 X81.164 Y79.692 E43.98097
G1 X118.836 Y79.692 E46.49766
G1 X143.232 Y79.741 E48.12746
G1 X144.072 Y79.797 E48.18368
G1 X179.765 Y84.496 E50.58878
G1 X180.597 Y84.661 E50.64541
G1 X181.354 Y84.863 E50.69778
G1 X182.940 Y85.520 E50.81245
G1 X183.618 Y85.912 E50.86478
G1 X184.968 Y86.949 E50.97847
G1 X185.522 Y87.503 E51.03082
G1 X186.563 Y88.859 E51.14502
G1 X186.954 Y89.537 E51.19730
G1 X187.604 Y91.106 E51.31079
G1 X187.807 Y91.863 E51.36314
G1 X188.031 Y93.558 E51.47734
G1 X188.031 Y170.341 E56.60686
G1 X187.975 Y171.194 E56.66398
G1 X185.230 Y192.043 E58.06882
G1 X185.064 Y192.877 E58.12562
G1 X184.862 Y193.633 E58.17790
G1 X184.206 Y195.217 E58.29244
G1 X183.814 Y195.895 E58.34476
G1 X182.777 Y197.245 E58.45848
G1 X182.223 Y197.799 E58.51083
G1 X180.873 Y198.836 E58.62453
G1 X180.195 Y199.228 E58.67686
G1 X178.609 Y199.885 E58.79154
G1 X177.852 Y200.087 E58.84389
G1 X176.167 Y200.308 E58.95742
G1 X23.833 Y200.308 E69.13416
G1 X22.148 Y200.087 E69.24770
G1 X21.391 Y199.885 E69.30004
G1 X19.805 Y199.228 E69.41472
G1 X19.127 Y198.836 E69.46704
G1 X17.777 Y197.799 E69.58076
G1 X17.223 Y197.245 E69.63310
G1 X16.186 Y195.895 E69.74681
G1 X15.794 Y195.217 E69.79913
G1 X15.138 Y193.633 E69.91368
G1 X14.936 Y192.877 E69.96596
G1 X14.770 Y192.043 E70.02276
G1 X12.025 Y171.194 E71.42760
G1 X11.969 Y170.341 E71.48472
G1 X11.969 Y93.558 E76.61424
G1 X12.193 Y91.863 E76.72845
G1 X12.396 Y91.107 E76.78075
G1 X13.046 Y89.537 E76.89428
G1 X13.437 Y88.859 E76.94656
G1 X14.478 Y87.503 E77.06076
G1 X15.032 Y86.949 E77.11311
G1 X16.382 Y85.912 E77.22680
G1 X17.060 Y85.520 E77.27913
G1 X18.646 Y84.863 E77.39382
G1 X19.345 Y84.677 E77.44216
G1 E75.44216 F3000.00000
G92 E0
G1 X22.370 Y113.195 F6000.000
G1 E2.00000 F3000.00000
G1 F1800
G1 X24.436 Y113.195 E2.13799
G1 X24.843 Y113.304 E2.16615
G1 X25.209 Y113.515 E2.19433
G1 X25.507 Y113.814 E2.22253
G1 X25.719 Y114.180 E2.25079
G1 X25.828 Y114.587 E2.27894
G1 X25.828 Y115.009 E2.30715
G1 X25.719 Y115.416 E2.33529
G1 X25.507 Y115.782 E2.36356
G1 X25.209 Y116.081 E2.39176
G1 X24.843 Y116.292 E2.41994
G1 X24.436 Y116.401 E2.44810
G1 X24.013 Y116.401 E2.47637
G1 X23.605 Y116.292 E2.50456
G1 X23.240 Y116.081 E2.53271
G1 X22.941 Y115.782 E2.56099
G1 X22.730 Y115.417 E2.58915
G1 X22.598 Y114.922 E2.62334
G1 X22.378 Y113.255 E2.73571
G1 E0.73571 F3000.00000
G92 E0
G1 X34.268 Y111.628 F6000.000
G1 E2.00000 F3000.00000
G1 F1800
G1 X36.332 Y111.628 E2.13793
G1 X36.740 Y111.738 E2.16614
G1 X37.106 Y111.949 E2.19439
G1 X37.405 Y112.247 E2.22259
G1 X37.616 Y112.613 E2.25078
G1 X37.725 Y113.020 E2.27893
G1 X37.725 Y113.443 E2.30720
G1 X37.616 Y113.851 E2.33540
G1 X37.405 Y114.216 E2.36355
G1 X37.106 Y114.514 E2.39177
G1 X36.741 Y114.725 E2.41995
G1 X36.332 Y114.835 E2.44821
G1 X35.911 Y114.835 E2.47636
G1 X35.503 Y114.725 E2.50456
G1 X35.138 Y114.514 E2.53275
G1 X34.839 Y114.216 E2.56098
G1 X34.628 Y113.850 E2.58918
G1 X34.495 Y113.355 E2.62345
G1 X34.275 Y111.688 E2.73578
G1 E0.73578 F3000.00000
G92 E0
G1 X46.165 Y110.062 F6000.000
G1 E2.00000 F3000.00000
G1 F1800
G1 X48.230 Y110.062 E2.13795
G1 X48.639 Y110.172 E2.16621
G1 X49.004 Y110.383 E2.19438
G1 X49.302 Y110.681 E2.22256
G1 X49.513 Y111.046 E2.25073
G1 X49.623 Y111.455 E2.27900
G1 X49.623 Y111.876 E2.30715
G1 X49.513 Y112.284 E2.33538
G1 X49.302 Y112.650 E2.36358
G1 X49.004 Y112.948 E2.39173
G1 X48.638 Y113.159 E2.41998
G1 X48.230 Y113.269 E2.44819
G1 X47.809 Y113.269 E2.47636
G1 X47.401 Y113.159 E2.50457
G1 X47.035 Y112.948 E2.53282
G1 X46.736 Y112.650 E2.56097
G1 X46.526 Y112.284 E2.58918
G1 X46.393 Y111.789 E2.62346
G1 X46.173 Y110.122 E2.73577
G1 E0.73577 F3000.00000
G92 E0
G1 X58.063 Y108.496 F6000.000
G1 E2.00000 F3000.00000
G1 F1800
G1 X60.129 Y108.496 E2.13800
G1 X60.536 Y108.605 E2.16616
G1 X60.902 Y108.816 E2.19434
G1 X61.200 Y109.115 E2.22254
G1 X61.411 Y109.481 E2.25080
G1 X61.521 Y109.889 E2.27900
G1 X61.521 Y110.310 E2.30716
G1 X61.412 Y110.717 E2.33530
G1 X61.200 Y111.083 E2.36357
G1 X60.901 Y111.382 E2.39177
G1 X60.536 Y111.593 E2.41995
G1 X60.129 Y111.702 E2.44811
G1 X59.706 Y111.702 E2.47638
G1 X59.298 Y111.593 E2.50457
G1 X58.933 Y111.382 E2.53272
G1 X58.634 Y111.083 E2.56100
G1 X58.423 Y110.718 E2.58917
G1 X58.291 Y110.223 E2.62336
G1 X58.071 Y108.556 E2.73572
G1 E0.73572 F3000.00000
G92 E0
G1 X55.796 Y91.278 F6000.000
G1 E2.00000 F3000.00000
G1 F1800
G1 X55.569 Y89.552 E2.11628
G1 X55.569 Y89.040 E2.15051
G1 X55.679 Y88.632 E2.17871
G1 X55.890 Y88.267 E2.20690
G1 X56.188 Y87.968 E2.23512
G1 X56.553 Y87.757 E2.26327
G1 X56.961 Y87.648 E2.29147
G1 X57.384 Y87.648 E2.31974
G1 X57.791 Y87.757 E2.34789
G1 X58.157 Y87.968 E2.37612
G1 X58.455 Y88.267 E2.40431
G1 X58.666 Y88.632 E2.43250
G1 X58.776 Y89.040 E2.46070
G1 X58.776 Y89.461 E2.48885
G1 X58.666 Y89.870 E2.51712
G1 X58.455 Y90.235 E2.54529
G1 X58.157 Y90.534 E2.57349
G1 X57.791 Y90.745 E2.60171
G1 X55.854 Y91.262 E2.73565
G1 E0.73565 F3000.00000
G92 E0
G1 X43.899 Y92.846 F6000.000
G1 E2.00000 F3000.00000
G1 F1800
G1 X43.671 Y91.119 E2.11638
G1 X43.671 Y90.607 E2.15061
G1 X43.781 Y90.199 E2.17882
G1 X43.992 Y89.833 E2.20707
G1 X44.290 Y89.534 E2.23522
G1 X44.656 Y89.324 E2.26343
G1 X45.064 Y89.214 E2.29165
G1 X45.485 Y89.214 E2.31981
G1 X45.894 Y89.324 E2.34807
G1 X46.259 Y89.534 E2.37624
G1 X46.557 Y89.833 E2.40442
G1 X46.768 Y90.198 E2.43259
G1 X46.878 Y90.607 E2.46086
G1 X46.878 Y91.028 E2.48901
G1 X46.768 Y91.436 E2.51724
G1 X46.557 Y91.802 E2.54544
G1 X46.259 Y92.100 E2.57359
G1 X45.893 Y92.311 E2.60184
G1 X43.957 Y92.831 E2.73578
G1 E0.73578 F3000.00000
G92 E0
G1 X32.002 Y94.413 F6000.000
G1 E2.00000 F3000.00000
G1 F1800
G1 X31.774 Y92.685 E2.11641
G1 X31.774 Y92.172 E2.15070
G1 X31.883 Y91.764 E2.17890
G1 X32.094 Y91.399 E2.20705
G1 X32.393 Y91.101 E2.23527
G1 X32.758 Y90.890 E2.26346
G1 X33.166 Y90.780 E2.29166
G1 X33.588 Y90.780 E2.31987
G1 X33.996 Y90.890 E2.34806
G1 X34.361 Y91.101 E2.37625
G1 X34.660 Y91.399 E2.40448
G1 X34.871 Y91.764 E2.43263
G1 X34.980 Y92.172 E2.46082
G1 X34.980 Y92.595 E2.48911
G1 X34.871 Y93.003 E2.51730
G1 X34.660 Y93.368 E2.54545
G1 X34.361 Y93.666 E2.57368
G1 X33.996 Y93.877 E2.60187
G1 X32.059 Y94.397 E2.73580
G1 E0.73580 F3000.00000
G92 E0
G1 X20.104 Y95.979 F6000.000
G1 E2.00000 F3000.00000
G1 F1800
G1 X19.876 Y94.251 E2.11641
G1 X19.876 Y93.739 E2.15063
G1 X19.986 Y93.331 E2.17883
G1 X20.196 Y92.966 E2.20702
G1 X20.495 Y92.667 E2.23524
G1 X20.860 Y92.456 E2.26339
G1 X21.268 Y92.347 E2.29159
G1 X21.691 Y92.347 E2.31986
G1 X22.098 Y92.456 E2.34801
G1 X22.464 Y92.667 E2.37624
G1 X22.762 Y92.966 E2.40443
G1 X22.973 Y93.331 E2.43262
G1 X23.083 Y93.739 E2.46082
G1 X23.083 Y94.160 E2.48897
G1 X22.973 Y94.569 E2.51724
G1 X22.762 Y94.934 E2.54541
G1 X22.465 Y95.232 E2.57356
G1 X22.098 Y95.443 E2.60180
G1 X20.162 Y95.963 E2.73576
G1 E0.73576 F3000.00000
G92 E0
G1 X80.400 Y99.710 F6000.000
G1 E2.00000 F3000.00000
G1 F1800
G1 X80.477 Y99.376 E2.02290
G1 X83.459 Y91.035 E2.61463
G1 X83.754 Y90.546 E2.65282
G1 X84.193 Y90.121 E2.69360
G1 X84.687 Y89.842 E2.73151
G1 X85.057 Y89.721 E2.75751
G1 X85.506 Y89.660 E2.78782
G1 X114.805 Y89.662 E4.74512
G1 X115.321 Y89.729 E4.77993
G1 X115.886 Y89.957 E4.82059
G1 X116.339 Y90.296 E4.85839
G1 X116.602 Y90.587 E4.88459
G1 X116.876 Y91.037 E4.91976
G1 X119.866 Y99.417 E5.51418
G1 X119.953 Y99.966 E5.55137
G1 X119.900 Y100.529 E5.58914
G1 X119.787 Y100.906 E5.61544
G1 X119.527 Y101.406 E5.65306
G1 X119.118 Y101.856 E5.69371
G1 X118.609 Y102.189 E5.73432
G1 X118.069 Y102.369 E5.77236
G1 X117.721 Y102.412 E5.79576
G1 X82.955 Y102.405 E8.11837
G1 X82.597 Y102.426 E8.14231
G1 X82.004 Y102.310 E8.18268
G1 X81.494 Y102.065 E8.22047
G1 X81.181 Y101.832 E8.24652
G1 X80.835 Y101.455 E8.28071
G1 X80.626 Y101.109 E8.30770
G1 X80.445 Y100.618 E8.34264
G1 X80.383 Y100.231 E8.36885
G1 X80.398 Y99.770 E8.39966
G1 X80.933 Y99.779 F6000.000
G1 F1800
G1 X80.992 Y99.527 E8.41697
G1 X83.945 Y91.266 E9.00306
G1 X84.177 Y90.882 E9.03300
G1 X84.516 Y90.554 E9.06453
G1 X84.904 Y90.335 E9.09432
G1 X85.177 Y90.245 E9.11351
G1 X85.542 Y90.196 E9.13815
G1 X114.770 Y90.197 E11.09071
G1 X115.184 Y90.251 E11.11861
G1 X115.621 Y90.428 E11.15006
G1 X115.977 Y90.694 E11.17977
G1 X116.171 Y90.908 E11.19908
G1 X116.389 Y91.268 E11.22720
G1 X119.345 Y99.550 E11.81463
G1 X119.414 Y99.983 E11.84398
G1 X119.372 Y100.426 E11.87368
G1 X119.289 Y100.704 E11.89306
G1 X119.084 Y101.097 E11.92266
G1 X118.767 Y101.445 E11.95410
G1 X118.374 Y101.703 E11.98552
G1 X117.950 Y101.844 E12.01539
G1 X117.688 Y101.877 E12.03301
G1 X82.939 Y101.870 E14.35442
G1 X82.633 Y101.887 E14.37490
G1 X82.174 Y101.798 E14.40617
G1 X81.773 Y101.605 E14.43589
G1 X81.542 Y101.433 E14.45512
G1 X81.266 Y101.132 E14.48241
G1 X81.111 Y100.875 E14.50242
G1 X80.966 Y100.482 E14.53042
G1 X80.920 Y100.197 E14.54972
G1 X80.931 Y99.839 E14.57361
G1 X81.467 Y99.849 F6000.000
G1 F1800
G1 X81.507 Y99.678 E14.58532
G1 X84.432 Y91.497 E15.16577
G1 X84.599 Y91.219 E15.18747
G1 X84.839 Y90.987 E15.20975
G1 X85.121 Y90.827 E15.23141
G1 X85.298 Y90.769 E15.24380
G1 X85.579 Y90.731 E15.26275
G1 X114.735 Y90.733 E17.21058
G1 X115.047 Y90.773 E17.23157
G1 X115.355 Y90.898 E17.25381
G1 X115.615 Y91.092 E17.27543
G1 X115.740 Y91.230 E17.28785
G1 X115.903 Y91.499 E17.30891
G1 X118.824 Y99.683 E17.88937
G1 X118.874 Y100.000 E17.91087
G1 X118.844 Y100.323 E17.93250
G1 X118.790 Y100.501 E17.94496
G1 X118.641 Y100.788 E17.96654
G1 X118.417 Y101.034 E17.98877
G1 X118.139 Y101.216 E18.01100
G1 X117.831 Y101.319 E18.03270
G1 X117.655 Y101.341 E18.04455
G1 X82.924 Y101.334 E20.36476
G1 X82.670 Y101.349 E20.38177
G1 X82.344 Y101.285 E20.40395
G1 X82.052 Y101.145 E20.42559
G1 X81.903 Y101.034 E20.43800
G1 X81.696 Y100.809 E20.45840
G1 X81.596 Y100.642 E20.47142
G1 X81.486 Y100.346 E20.49247
G1 X81.457 Y100.163 E20.50487
G1 X81.465 Y99.909 E20.52184
G1 X81.467 Y99.849 F6000.000
G1 E18.52184 F3000.00000
G92 E0
G1 X76.173 Y102.075 F6000.000
G1 E2.00000 F3000.00000
G1 F1800
G1 X21.845 Y109.207 E5.66053
G1 X20.583 Y99.623 E6.30638
G1 X78.260 Y92.050 E10.19253
G1 X79.764 Y88.419 E10.45514
G1 X80.020 Y88.084 E10.48329
G1 X80.355 Y87.828 E10.51146
G1 X80.745 Y87.666 E10.53968
G1 X81.254 Y87.599 E10.57394
G1 X118.746 Y87.599 E13.07866
G1 X119.255 Y87.666 E13.11292
G1 X119.645 Y87.828 E13.14113
G1 X119.980 Y88.084 E13.16930
G1 X120.236 Y88.419 E13.19745
G1 X121.740 Y92.050 E13.46006
G1 X179.417 Y99.623 E17.34621
G1 X178.155 Y109.207 E17.99206
G1 X123.827 Y102.075 E21.65258
G1 X123.800 Y103.723 E21.76265
G1 X123.751 Y103.976 E21.77990
G1 X123.669 Y104.031 E21.78650
G1 X123.531 Y104.079 E21.79624
G1 X123.148 Y104.145 E21.82224
G1 X122.819 Y104.159 E21.84423
G1 X77.002 Y104.154 E24.90505
G1 X76.567 Y104.104 E24.93432
G1 X76.411 Y104.061 E24.94510
G1 X76.249 Y103.976 E24.95735
G1 X76.200 Y103.723 E24.97459
G1 X76.174 Y102.135 E25.08066
G1 E23.08066 F3000.00000
G92 E0
G1 X144.204 Y91.278 F6000.000
G1 E2.00000 F3000.00000
G1 F1800
G1 X142.209 Y90.745 E2.13795
G1 X141.843 Y90.534 E2.16617
G1 X141.545 Y90.235 E2.19437
G1 X141.334 Y89.870 E2.22254
G1 X141.224 Y89.461 E2.25080
G1 X141.224 Y89.040 E2.27896
G1 X141.334 Y88.632 E2.30715
G1 X141.545 Y88.267 E2.33535
G1 X141.843 Y87.968 E2.36354
G1 X142.209 Y87.757 E2.39177
G1 X142.616 Y87.648 E2.41992
G1 X143.039 Y87.648 E2.44819
G1 X143.447 Y87.757 E2.47638
G1 X143.812 Y87.968 E2.50454
G1 X144.110 Y88.267 E2.53276
G1 X144.321 Y88.632 E2.56095
G1 X144.431 Y89.040 E2.58915
G1 X144.431 Y89.552 E2.62337
G1 X144.212 Y91.218 E2.73565
G1 E0.73565 F3000.00000
G92 E0
G1 X156.101 Y92.846 F6000.000
G1 E2.00000 F3000.00000
G1 F1800
G1 X154.107 Y92.311 E2.13795
G1 X153.741 Y92.100 E2.16620
G1 X153.443 Y91.802 E2.19435
G1 X153.232 Y91.436 E2.22256
G1 X153.122 Y91.028 E2.25078
G1 X153.122 Y90.607 E2.27894
G1 X153.232 Y90.198 E2.30720
G1 X153.443 Y89.833 E2.33537
G1 X153.741 Y89.534 E2.36355
G1 X154.106 Y89.324 E2.39172
G1 X154.515 Y89.214 E2.41998
G1 X154.936 Y89.214 E2.44814
G1 X155.344 Y89.324 E2.47636
G1 X155.710 Y89.534 E2.50457
G1 X156.008 Y89.833 E2.53272
G1 X156.219 Y90.199 E2.56097
G1 X156.329 Y90.607 E2.58918
G1 X156.329 Y91.119 E2.62341
G1 X156.109 Y92.787 E2.73578
G1 E0.73578 F3000.00000
G92 E0
G1 X167.998 Y94.413 F6000.000
G1 E2.00000 F3000.00000
G1 F1800
G1 X166.004 Y93.877 E2.13794
G1 X165.639 Y93.666 E2.16613
G1 X165.340 Y93.368 E2.19436
G1 X165.129 Y93.003 E2.22251
G1 X165.020 Y92.595 E2.25070
G1 X165.020 Y92.172 E2.27899
G1 X165.129 Y91.764 E2.30718
G1 X165.340 Y91.399 E2.33533
G1 X165.639 Y91.101 E2.36355
G1 X166.004 Y90.890 E2.39175
G1 X166.412 Y90.780 E2.41994
G1 X166.834 Y90.780 E2.44815
G1 X167.242 Y90.890 E2.47634
G1 X167.607 Y91.101 E2.50453
G1 X167.906 Y91.399 E2.53276
G1 X168.117 Y91.764 E2.56091
G1 X168.226 Y92.172 E2.58910
G1 X168.226 Y92.685 E2.62340
G1 X168.006 Y94.353 E2.73580
G1 E0.73580 F3000.00000
G92 E0
G1 X179.896 Y95.979 F6000.000
G1 E2.00000 F3000.00000
G1 F1800
G1 X177.902 Y95.443 E2.13796
G1 X177.535 Y95.232 E2.16621
G1 X177.237 Y94.934 E2.19435
G1 X177.027 Y94.569 E2.22253
G1 X176.917 Y94.160 E2.25079
G1 X176.917 Y93.739 E2.27895
G1 X177.027 Y93.331 E2.30714
G1 X177.237 Y92.966 E2.33533
G1 X177.536 Y92.667 E2.36353
G1 X177.902 Y92.456 E2.39175
G1 X178.309 Y92.347 E2.41991
G1 X178.732 Y92.347 E2.44818
G1 X179.140 Y92.456 E2.47637
G1 X179.505 Y92.667 E2.50452
G1 X179.803 Y92.966 E2.53275
G1 X180.014 Y93.331 E2.56094
G1 X180.124 Y93.739 E2.58913
G1 X180.124 Y94.251 E2.62335
