; generated by Slic3r 1.3.1-dev on 2020-05-02 at 09:42:28

; external perimeters extrusion width = 0.44mm (3.94mm^3/s)
; perimeters extrusion width = 0.48mm (8.80mm^3/s)
; infill extrusion width = 0.48mm (8.80mm^3/s)
; solid infill extrusion width = 0.48mm (2.51mm^3/s)
; top infill extrusion width = 0.48mm (1.88mm^3/s)

M107
M190 S50 ; set bed temperature and wait for it to be reached
M104 S205 ; set temperature
G28 ; home all axes
G1 Z5 F5000 ; lift nozzle

; Filament gcode

M109 S205 ; set temperature and wait for it to be reached
G21 ; set units to millimeters
G90 ; use absolute coordinates
M82 ; use absolute distances for extrusion
G92 E0
G92 E0
G1 Z0.250 F6000.000
G1 E-2.00000 F3000.00000
G92 E0
G1 X48.495 Y117.875 F6000.000
G1 E2.00000 F3000.00000
G1 F1800
G1 X49.086 Y117.641 E2.02951
G1 X50.607 Y117.117 E2.10411
G1 X51.226 Y116.936 E2.13404
G1 X52.795 Y116.555 E2.20893
G1 X53.416 Y116.434 E2.23832
G1 X55.031 Y116.197 E2.31404
G1 X55.837 Y116.126 E2.35159
G1 X57.649 Y116.077 E2.43568
G1 X142.349 Y116.077 E6.36512
G1 X144.161 Y116.126 E6.44921
G1 X144.967 Y116.197 E6.48676
G1 X146.582 Y116.434 E6.56248
G1 X147.204 Y116.555 E6.59187
G1 X148.773 Y116.936 E6.66676
G1 X149.392 Y117.117 E6.69670
G1 X150.912 Y117.641 E6.77129
G1 X151.503 Y117.875 E6.80080
G1 X152.975 Y118.540 E6.87572
G1 X153.536 Y118.824 E6.90490
G1 X154.962 Y119.632 E6.98091
G1 X155.564 Y120.016 E7.01405
G1 X156.895 Y120.964 E7.08986
G1 X157.467 Y121.418 E7.12374
G1 X158.701 Y122.512 E7.20023
G1 X159.104 Y122.899 E7.22616
G1 X160.197 Y124.039 E7.29943
G1 X160.666 Y124.582 E7.33272
G1 X161.663 Y125.864 E7.40807
G1 X161.982 Y126.310 E7.43352
G1 X162.886 Y127.687 E7.50995
G1 X163.293 Y128.396 E7.54784
G1 X164.004 Y129.821 E7.62174
G1 X164.221 Y130.303 E7.64624
G1 X164.839 Y131.825 E7.72248
G1 X165.049 Y132.417 E7.75163
G1 X165.524 Y133.984 E7.82757
G1 X165.709 Y134.748 E7.86406
G1 X165.995 Y136.317 E7.93803
G1 X166.081 Y136.954 E7.96784
G1 X166.222 Y138.567 E8.04294
G1 X166.248 Y139.166 E8.07078
G1 X166.248 Y140.783 E8.14580
G1 X166.222 Y141.382 E8.17360
G1 X166.081 Y142.997 E8.24880
G1 X166.001 Y143.600 E8.27704
G1 X165.715 Y145.215 E8.35312
G1 X165.525 Y146.010 E8.39107
G1 X165.050 Y147.579 E8.46713
G1 X164.838 Y148.178 E8.49660
G1 X164.220 Y149.699 E8.57273
G1 X164.002 Y150.181 E8.59727
G1 X163.291 Y151.604 E8.67109
G1 X162.889 Y152.304 E8.70855
G1 X161.985 Y153.684 E8.78506
G1 X161.583 Y154.235 E8.81672
G1 X160.295 Y155.807 E8.91098
G1 X159.202 Y156.995 E8.98589
G1 X158.696 Y157.491 E9.01877
G1 X157.461 Y158.582 E9.09520
G1 X156.769 Y159.120 E9.13586
G1 X155.438 Y160.024 E9.21051
G1 X154.962 Y160.320 E9.23653
G1 X153.144 Y161.333 E9.33309
G1 X151.672 Y162.046 E9.40896
G1 X150.904 Y162.362 E9.44750
G1 X149.383 Y162.884 E9.52206
G1 X148.773 Y163.062 E9.55159
G1 X147.204 Y163.443 E9.62647
G1 X146.582 Y163.564 E9.65586
G1 X144.967 Y163.801 E9.73158
G1 X144.170 Y163.872 E9.76870
G1 X142.349 Y163.923 E9.85323
G1 X57.649 Y163.923 E13.78267
G1 X55.828 Y163.872 E13.86720
G1 X55.031 Y163.801 E13.90431
G1 X53.416 Y163.564 E13.98003
G1 X52.795 Y163.443 E14.00942
G1 X51.226 Y163.062 E14.08431
G1 X50.615 Y162.884 E14.11383
G1 X49.095 Y162.362 E14.18839
G1 X48.327 Y162.046 E14.22693
G1 X46.462 Y161.127 E14.32335
G1 X45.037 Y160.320 E14.39936
G1 X44.560 Y160.024 E14.42538
G1 X43.229 Y159.120 E14.50003
G1 X42.537 Y158.582 E14.54070
G1 X41.303 Y157.491 E14.61713
G1 X40.797 Y156.995 E14.65000
G1 X39.412 Y155.469 E14.74558
G1 X38.416 Y154.235 E14.81917
G1 X38.014 Y153.684 E14.85083
G1 X37.110 Y152.304 E14.92735
G1 X36.707 Y151.604 E14.96481
G1 X35.997 Y150.181 E15.03861
G1 X35.779 Y149.698 E15.06316
G1 X35.160 Y148.178 E15.13930
G1 X34.949 Y147.580 E15.16876
G1 X34.473 Y146.010 E15.24482
G1 X34.282 Y145.206 E15.28320
G1 X33.998 Y143.591 E15.35926
G1 X33.921 Y143.006 E15.38664
G1 X33.778 Y141.391 E15.46185
G1 X33.751 Y140.783 E15.49009
G1 X33.751 Y139.166 E15.56510
G1 X33.778 Y138.557 E15.59337
G1 X33.921 Y136.945 E15.66848
G1 X34.004 Y136.326 E15.69743
G1 X34.288 Y134.758 E15.77138
G1 X34.474 Y133.984 E15.80831
G1 X34.950 Y132.417 E15.88425
G1 X35.159 Y131.825 E15.91340
G1 X35.777 Y130.303 E15.98963
G1 X35.995 Y129.821 E16.01414
G1 X36.705 Y128.396 E16.08804
G1 X37.112 Y127.687 E16.12593
G1 X38.017 Y126.310 E16.20236
G1 X38.336 Y125.864 E16.22781
G1 X39.332 Y124.582 E16.30316
G1 X39.801 Y124.039 E16.33645
G1 X40.895 Y122.899 E16.40972
G1 X41.298 Y122.512 E16.43564
G1 X42.532 Y121.418 E16.51214
G1 X43.103 Y120.964 E16.54601
G1 X44.434 Y120.016 E16.62183
G1 X45.037 Y119.632 E16.65497
G1 X46.462 Y118.824 E16.73098
G1 X47.023 Y118.540 E16.76015
G1 X48.440 Y117.900 E16.83229
G1 X48.679 Y118.282 F6000.000
G1 F1800
G1 X49.232 Y118.063 E16.85989
G1 X50.752 Y117.539 E16.93448
G1 X51.331 Y117.369 E16.96248
G1 X52.900 Y116.989 E17.03737
G1 X53.481 Y116.876 E17.06486
G1 X55.096 Y116.638 E17.14058
G1 X55.850 Y116.572 E17.17569
G1 X57.649 Y116.523 E17.25919
G1 X142.349 Y116.523 E21.18863
G1 X144.148 Y116.572 E21.27213
G1 X144.902 Y116.638 E21.30725
G1 X146.517 Y116.876 E21.38297
G1 X147.099 Y116.989 E21.41046
G1 X148.667 Y117.369 E21.48534
G1 X149.246 Y117.539 E21.51334
G1 X150.767 Y118.063 E21.58793
G1 X151.320 Y118.282 E21.61554
G1 X152.792 Y118.947 E21.69045
G1 X153.316 Y119.213 E21.71774
G1 X154.742 Y120.020 E21.79375
G1 X155.305 Y120.379 E21.82475
G1 X156.636 Y121.327 E21.90056
G1 X157.171 Y121.752 E21.93224
G1 X158.405 Y122.846 E22.00874
G1 X158.782 Y123.208 E22.03298
G1 X159.875 Y124.348 E22.10625
G1 X160.314 Y124.855 E22.13739
G1 X161.310 Y126.138 E22.21274
G1 X161.609 Y126.555 E22.23654
G1 X162.513 Y127.932 E22.31297
G1 X162.894 Y128.595 E22.34841
G1 X163.604 Y130.020 E22.42231
G1 X163.807 Y130.471 E22.44522
G1 X164.426 Y131.993 E22.52146
G1 X164.622 Y132.547 E22.54872
G1 X165.097 Y134.113 E22.62466
G1 X165.270 Y134.828 E22.65879
G1 X165.556 Y136.397 E22.73276
G1 X165.636 Y136.993 E22.76064
G1 X165.777 Y138.605 E22.83574
G1 X165.801 Y139.166 E22.86178
G1 X165.801 Y140.783 E22.93680
G1 X165.777 Y141.343 E22.96280
G1 X165.636 Y142.958 E23.03800
G1 X165.562 Y143.522 E23.06440
G1 X165.276 Y145.137 E23.14049
G1 X165.098 Y145.881 E23.17598
G1 X164.623 Y147.450 E23.25204
G1 X164.425 Y148.010 E23.27960
G1 X163.806 Y149.530 E23.35574
G1 X163.602 Y149.981 E23.37869
G1 X162.892 Y151.405 E23.45250
G1 X162.516 Y152.059 E23.48753
G1 X161.611 Y153.439 E23.56405
G1 X161.236 Y153.955 E23.59366
G1 X159.967 Y155.504 E23.68658
G1 X158.873 Y156.692 E23.76149
G1 X158.400 Y157.156 E23.79224
G1 X157.166 Y158.248 E23.86867
G1 X156.518 Y158.750 E23.90669
G1 X155.187 Y159.655 E23.98135
G1 X154.742 Y159.932 E24.00569
G1 X152.949 Y160.932 E24.10091
G1 X151.477 Y161.644 E24.17678
G1 X150.759 Y161.940 E24.21283
G1 X149.239 Y162.462 E24.28739
G1 X148.667 Y162.629 E24.31500
G1 X147.099 Y163.009 E24.38988
G1 X146.517 Y163.122 E24.41737
G1 X144.902 Y163.360 E24.49309
G1 X144.157 Y163.426 E24.52780
G1 X142.349 Y163.477 E24.61171
G1 X57.649 Y163.477 E28.54115
G1 X55.841 Y163.426 E28.62506
G1 X55.096 Y163.360 E28.65977
G1 X53.481 Y163.122 E28.73549
G1 X52.900 Y163.009 E28.76298
G1 X51.331 Y162.629 E28.83786
G1 X50.760 Y162.462 E28.86548
G1 X49.240 Y161.940 E28.94004
G1 X48.521 Y161.644 E28.97608
G1 X46.682 Y160.739 E29.07117
G1 X45.257 Y159.932 E29.14718
G1 X44.811 Y159.655 E29.17152
G1 X43.480 Y158.750 E29.24617
G1 X42.833 Y158.248 E29.28420
G1 X41.598 Y157.156 E29.36063
G1 X41.125 Y156.692 E29.39138
G1 X39.760 Y155.189 E29.48561
G1 X38.763 Y153.955 E29.55920
G1 X38.387 Y153.439 E29.58881
G1 X37.483 Y152.059 E29.66533
G1 X37.107 Y151.405 E29.70036
G1 X36.396 Y149.981 E29.77417
G1 X36.192 Y149.530 E29.79713
G1 X35.574 Y148.010 E29.87327
G1 X35.376 Y147.450 E29.90082
G1 X34.901 Y145.881 E29.97688
G1 X34.721 Y145.128 E30.01277
G1 X34.437 Y143.514 E30.08884
G1 X34.365 Y142.966 E30.11444
G1 X34.222 Y141.352 E30.18965
G1 X34.197 Y140.783 E30.21606
G1 X34.197 Y139.166 E30.29108
G1 X34.222 Y138.597 E30.31751
G1 X34.365 Y136.984 E30.39262
G1 X34.443 Y136.406 E30.41969
G1 X34.727 Y134.837 E30.49365
G1 X34.901 Y134.113 E30.52819
G1 X35.377 Y132.547 E30.60413
G1 X35.573 Y131.993 E30.63138
G1 X36.191 Y130.471 E30.70761
G1 X36.394 Y130.020 E30.73054
G1 X37.105 Y128.595 E30.80444
G1 X37.485 Y127.932 E30.83987
G1 X38.390 Y126.555 E30.91631
G1 X38.688 Y126.138 E30.94011
G1 X39.685 Y124.855 E31.01546
G1 X40.123 Y124.348 E31.04659
G1 X41.217 Y123.208 E31.11986
G1 X41.594 Y122.846 E31.14411
G1 X42.828 Y121.752 E31.22060
G1 X43.362 Y121.327 E31.25229
G1 X44.693 Y120.379 E31.32810
G1 X45.257 Y120.020 E31.35909
G1 X46.682 Y119.213 E31.43510
G1 X47.207 Y118.947 E31.46239
G1 X48.624 Y118.307 E31.53452
G1 E29.53452 F3000.00000
G92 E0
G1 X46.910 Y142.590 F6000.000
G1 E2.00000 F3000.00000
G1 F1800
G1 X46.910 Y141.967 E2.02890
G1 X46.776 Y141.826 E2.03795
G1 X46.735 Y141.746 E2.04211
G1 X46.435 Y141.446 E2.06181
G1 X46.435 Y141.392 E2.06431
G1 X46.292 Y141.226 E2.07447
G1 X46.292 Y141.146 E2.07817
G1 X46.246 Y141.098 E2.08127
G1 X46.246 Y140.820 E2.09414
G1 X46.197 Y140.726 E2.09907
G1 X46.197 Y140.572 E2.10621
G1 X46.151 Y140.477 E2.11109
G1 X46.151 Y139.375 E2.16224
G1 X46.197 Y139.326 E2.16535
G1 X46.197 Y139.106 E2.17557
G1 X46.352 Y138.959 E2.18546
G1 X46.389 Y138.897 E2.18880
G1 X46.389 Y138.021 E2.22945
G1 X46.481 Y138.021 E2.23373
G1 X46.481 Y137.880 E2.24028
G1 X47.155 Y137.880 E2.27154
G1 X47.465 Y137.574 E2.29175
G1 X47.509 Y137.572 E2.29380
G1 X47.605 Y137.476 E2.30009
G1 X47.670 Y137.473 E2.30309
G1 X47.738 Y137.407 E2.30748
G1 X47.976 Y137.407 E2.31851
G1 X48.170 Y137.313 E2.32851
G1 X48.253 Y137.313 E2.33237
G1 X48.347 Y137.264 E2.33730
G1 X49.572 Y137.264 E2.39412
G1 X49.664 Y137.313 E2.39894
G1 X49.954 Y137.313 E2.41239
G1 X50.000 Y137.359 E2.41542
G1 X50.762 Y137.359 E2.45076
G1 X50.762 Y137.815 E2.47191
G1 X51.334 Y137.843 E2.49848
G1 X51.334 Y138.258 E2.51772
G1 X51.620 Y138.273 E2.53100
G1 X51.620 Y138.835 E2.55710
G1 X51.761 Y138.842 E2.56364
G1 X51.761 Y140.395 E2.63567
G1 X51.712 Y140.489 E2.64059
G1 X51.712 Y140.860 E2.65780
G1 X51.627 Y140.949 E2.66351
G1 X51.510 Y141.179 E2.67549
G1 X51.500 Y141.374 E2.68454
G1 X51.315 Y141.559 E2.69668
G1 X51.280 Y142.248 E2.72866
G1 X51.048 Y142.260 E2.73942
G1 X51.048 Y142.542 E2.75249
G1 X50.180 Y142.542 E2.79276
G1 X49.801 Y142.733 E2.81246
G1 X49.751 Y142.733 E2.81477
G1 X49.656 Y142.782 E2.81974
G1 X49.549 Y142.782 E2.82468
G1 X49.453 Y142.828 E2.82964
G1 X48.213 Y142.828 E2.88714
G1 X48.114 Y142.733 E2.89350
G1 X47.963 Y142.733 E2.90052
G1 X47.769 Y142.590 E2.91169
G1 X46.970 Y142.590 E2.94875
G1 E0.94875 F3000.00000
G92 E0
G1 X46.835 Y138.467 F6000.000
G1 E2.00000 F3000.00000
G1 F1800
G1 X46.928 Y138.467 E2.00429
G1 X46.928 Y138.326 E2.01083
G1 X47.338 Y138.326 E2.02987
G1 X47.658 Y138.011 E2.05070
G1 X47.704 Y138.009 E2.05284
G1 X47.799 Y137.913 E2.05909
G1 X47.857 Y137.911 E2.06180
G1 X47.917 Y137.854 E2.06563
G1 X48.079 Y137.854 E2.07314
G1 X48.273 Y137.759 E2.08315
G1 X48.360 Y137.759 E2.08721
G1 X48.455 Y137.711 E2.09214
G1 X49.462 Y137.711 E2.13886
G1 X49.554 Y137.759 E2.14368
G1 X49.769 Y137.759 E2.15367
G1 X49.815 Y137.805 E2.15670
G1 X50.316 Y137.805 E2.17991
G1 X50.316 Y138.121 E2.19453
G1 X50.459 Y138.193 E2.20198
G1 X50.500 Y138.249 E2.20519
G1 X50.888 Y138.268 E2.22318
G1 X50.888 Y138.681 E2.24237
G1 X51.174 Y138.696 E2.25566
G1 X51.174 Y139.174 E2.27780
G1 X51.259 Y139.263 E2.28355
G1 X51.315 Y139.266 E2.28612
G1 X51.315 Y140.287 E2.33349
G1 X51.266 Y140.381 E2.33840
G1 X51.266 Y140.681 E2.35232
G1 X51.174 Y140.778 E2.35853
G1 X51.174 Y140.856 E2.36214
G1 X51.069 Y141.061 E2.37284
G1 X51.063 Y141.180 E2.37835
G1 X50.907 Y141.336 E2.38859
G1 X50.876 Y141.398 E2.39181
G1 X50.854 Y141.823 E2.41154
G1 X50.602 Y141.837 E2.42329
G1 X50.602 Y142.095 E2.43528
G1 X50.074 Y142.095 E2.45978
G1 X49.695 Y142.287 E2.47948
G1 X49.645 Y142.287 E2.48179
G1 X49.549 Y142.335 E2.48677
G1 X49.448 Y142.335 E2.49147
G1 X49.351 Y142.381 E2.49643
G1 X48.392 Y142.381 E2.54093
G1 X48.266 Y142.287 E2.54823
G1 X48.110 Y142.287 E2.55549
G1 X47.916 Y142.144 E2.56666
G1 X47.357 Y142.144 E2.59262
G1 X47.357 Y141.788 E2.60910
G1 X47.145 Y141.567 E2.62333
G1 X47.102 Y141.482 E2.62774
G1 X46.881 Y141.261 E2.64223
G1 X46.881 Y141.210 E2.64459
G1 X46.738 Y141.035 E2.65508
G1 X46.738 Y140.967 E2.65820
G1 X46.692 Y140.919 E2.66131
G1 X46.692 Y140.713 E2.67086
G1 X46.644 Y140.618 E2.67580
G1 X46.644 Y140.469 E2.68274
G1 X46.598 Y140.374 E2.68762
G1 X46.598 Y139.554 E2.72569
G1 X46.644 Y139.505 E2.72879
G1 X46.644 Y139.297 E2.73845
G1 X46.703 Y139.240 E2.74226
G1 X46.835 Y139.021 E2.75413
G1 X46.835 Y138.527 E2.77704
G1 X47.374 Y138.773 F6000.000
G1 F1800
G1 X47.525 Y138.773 E2.78403
G1 X47.850 Y138.448 E2.80536
G1 X47.898 Y138.446 E2.80759
G1 X47.993 Y138.351 E2.81379
G1 X48.045 Y138.349 E2.81622
G1 X48.096 Y138.300 E2.81948
G1 X48.182 Y138.300 E2.82348
G1 X48.376 Y138.205 E2.83349
G1 X48.468 Y138.205 E2.83776
G1 X48.563 Y138.157 E2.84269
G1 X49.352 Y138.157 E2.87929
G1 X49.444 Y138.205 E2.88411
G1 X49.584 Y138.205 E2.89064
G1 X49.631 Y138.252 E2.89367
G1 X49.869 Y138.252 E2.90476
G1 X49.869 Y138.352 E2.90943
G1 X50.038 Y138.480 E2.91927
G1 X50.164 Y138.544 E2.92582
G1 X50.270 Y138.684 E2.93394
G1 X50.441 Y138.693 E2.94192
G1 X50.441 Y138.822 E2.94793
G1 X50.492 Y138.926 E2.95330
G1 X50.582 Y139.016 E2.95920
G1 X50.582 Y139.113 E2.96367
G1 X50.727 Y139.120 E2.97041
G1 X50.727 Y139.352 E2.98118
G1 X50.774 Y139.401 E2.98428
G1 X50.774 Y139.537 E2.99062
G1 X50.848 Y139.689 E2.99845
G1 X50.868 Y139.690 E2.99940
G1 X50.868 Y140.179 E3.02211
G1 X50.820 Y140.274 E3.02703
G1 X50.820 Y140.503 E3.03765
G1 X50.774 Y140.551 E3.04075
G1 X50.727 Y140.749 E3.05017
G1 X50.628 Y140.943 E3.06033
G1 X50.626 Y140.986 E3.06231
G1 X50.538 Y141.073 E3.06802
G1 X50.492 Y141.168 E3.07289
G1 X50.439 Y141.221 E3.07642
G1 X50.429 Y141.399 E3.08467
G1 X50.250 Y141.409 E3.09299
G1 X50.155 Y141.505 E3.09927
G1 X50.155 Y141.649 E3.10595
G1 X49.916 Y141.649 E3.11708
G1 X49.867 Y141.700 E3.12032
G1 X49.588 Y141.840 E3.13481
G1 X49.538 Y141.840 E3.13714
G1 X49.443 Y141.889 E3.14211
G1 X49.346 Y141.889 E3.14659
G1 X49.250 Y141.935 E3.15154
G1 X48.571 Y141.935 E3.18304
G1 X48.523 Y141.889 E3.18614
G1 X48.468 Y141.889 E3.18866
G1 X48.373 Y141.840 E3.19360
G1 X48.257 Y141.840 E3.19902
G1 X48.063 Y141.697 E3.21019
G1 X47.803 Y141.697 E3.22225
G1 X47.803 Y141.551 E3.22904
G1 X47.715 Y141.463 E3.23478
G1 X47.616 Y141.413 E3.23997
G1 X47.514 Y141.307 E3.24680
G1 X47.469 Y141.217 E3.25145
G1 X47.328 Y141.076 E3.26072
G1 X47.328 Y141.028 E3.26295
G1 X47.233 Y140.931 E3.26922
G1 X47.233 Y140.890 E3.27113
G1 X47.185 Y140.844 E3.27423
G1 X47.185 Y140.789 E3.27680
G1 X47.139 Y140.740 E3.27990
G1 X47.139 Y140.606 E3.28614
G1 X47.090 Y140.511 E3.29108
G1 X47.090 Y140.366 E3.29782
G1 X47.044 Y140.271 E3.30270
G1 X47.044 Y139.732 E3.32769
G1 X47.090 Y139.684 E3.33079
G1 X47.090 Y139.488 E3.33989
G1 X47.139 Y139.442 E3.34299
G1 X47.139 Y139.383 E3.34574
G1 X47.282 Y139.145 E3.35860
G1 X47.282 Y138.914 E3.36933
G1 X47.374 Y138.914 E3.37362
G1 X47.374 Y138.833 E3.37738
G1 X47.374 Y138.773 F6000.000
G1 E1.37738 F3000.00000
G92 E0
G1 X56.854 Y138.989 F6000.000
G1 E2.00000 F3000.00000
G1 F1800
G1 X57.765 Y137.081 E2.09807
G1 X59.026 Y137.542 E2.16036
G1 X59.675 Y138.045 E2.19846
G1 X60.067 Y138.589 E2.22954
G1 X60.376 Y139.248 E2.26334
G1 X60.468 Y139.995 E2.29824
G1 X60.272 Y141.297 E2.35930
G1 X58.132 Y141.176 E2.45875
G1 X58.049 Y139.973 E2.51469
G1 X57.970 Y139.776 E2.52451
G1 X57.889 Y139.690 E2.53002
G1 X56.903 Y139.023 E2.58522
G1 X57.422 Y138.835 F6000.000
G1 F1800
G1 X57.992 Y137.640 E2.64664
G1 X58.807 Y137.938 E2.68688
G1 X59.351 Y138.359 E2.71877
G1 X59.680 Y138.816 E2.74492
G1 X59.942 Y139.373 E2.77349
G1 X60.017 Y139.989 E2.80226
G1 X59.891 Y140.828 E2.84162
G1 X58.550 Y140.752 E2.90393
G1 X58.492 Y139.907 E2.94324
G1 X58.426 Y139.681 E2.95417
G1 X58.349 Y139.540 E2.96163
G1 X58.176 Y139.345 E2.97371
G1 X57.472 Y138.868 E3.01316
G1 X57.990 Y138.680 F6000.000
G1 F1800
G1 X58.220 Y138.199 E3.03793
G1 X58.589 Y138.333 E3.05613
G1 X59.026 Y138.672 E3.08180
G1 X59.294 Y139.043 E3.10304
G1 X59.507 Y139.498 E3.12636
