; generated by Slic3r 1.3.1-dev on 2020-09-08 at 16:29:48

; external perimeters extrusion width = 0.44mm (2.78mm^3/s)
; perimeters extrusion width = 0.56mm (7.24mm^3/s)
; infill extrusion width = 0.50mm (6.40mm^3/s)
; solid infill extrusion width = 0.56mm (2.07mm^3/s)
; top infill extrusion width = 0.56mm (1.55mm^3/s)

M107
M190 S50 ; set bed temperature and wait for it to be reached
M104 S205 ; set temperature
G28 ; home all axes
G1 Z5 F5000 ; lift nozzle

; Filament gcode

M109 S205 ; set temperature and wait for it to be reached
G21 ; set units to millimeters
G90 ; use absolute coordinates
M82 ; use absolute distances for extrusion
G92 E0
G92 E0
G1 Z0.250 F6000.000
G1 E-2.00000 F3000.00000
G92 E0
G1 X19.311 Y84.316 F6000.000
G1 E2.00000 F3000.00000
G1 F1800
G1 X20.188 Y84.142 E2.04148
G1 X32.085 Y82.575 E2.59818
G1 X55.882 Y79.443 E3.71169
G1 X56.767 Y79.384 E3.75286
G1 X81.164 Y79.335 E4.88470
G1 X118.836 Y79.335 E6.63240
G1 X143.233 Y79.384 E7.76424
G1 X144.118 Y79.443 E7.80542
G1 X179.812 Y84.142 E9.47563
G1 X180.689 Y84.316 E9.51711
G1 X181.446 Y84.518 E9.55346
G1 X183.119 Y85.211 E9.63745
G1 X183.797 Y85.603 E9.67381
G1 X185.221 Y86.696 E9.75707
G1 X185.775 Y87.250 E9.79342
G1 X186.872 Y88.681 E9.87705
G1 X187.263 Y89.359 E9.91339
G1 X187.949 Y91.015 E9.99651
G1 X188.152 Y91.771 E10.03283
G1 X188.388 Y93.558 E10.11647
G1 X188.388 Y170.341 E13.67864
G1 X188.329 Y171.241 E13.72047
G1 X185.584 Y192.090 E14.69606
G1 X185.409 Y192.969 E14.73766
G1 X185.207 Y193.725 E14.77396
G1 X184.515 Y195.396 E14.85785
G1 X184.123 Y196.074 E14.89418
G1 X183.030 Y197.498 E14.97747
G1 X182.476 Y198.052 E15.01382
G1 X181.052 Y199.145 E15.09710
G1 X180.374 Y199.537 E15.13344
G1 X178.701 Y200.230 E15.21743
G1 X177.944 Y200.432 E15.25378
G1 X176.167 Y200.665 E15.33693
G1 X23.833 Y200.665 E22.40411
G1 X22.056 Y200.432 E22.48726
G1 X21.299 Y200.230 E22.52361
G1 X19.626 Y199.537 E22.60760
G1 X18.948 Y199.145 E22.64394
G1 X17.490 Y198.017 E22.72947
G1 X16.970 Y197.498 E22.76355
G1 X15.877 Y196.074 E22.84683
G1 X15.485 Y195.396 E22.88316
G1 X14.793 Y193.725 E22.96705
G1 X14.591 Y192.969 E23.00336
G1 X14.416 Y192.090 E23.04496
G1 X11.671 Y171.241 E24.02055
G1 X11.612 Y170.341 E24.06238
G1 X11.612 Y93.558 E27.62455
G1 X11.848 Y91.771 E27.70819
G1 X12.051 Y91.015 E27.74450
G1 X12.737 Y89.359 E27.82765
G1 X13.128 Y88.681 E27.86397
G1 X14.225 Y87.250 E27.94760
G1 X14.779 Y86.696 E27.98395
G1 X16.203 Y85.603 E28.06723
G1 X16.881 Y85.211 E28.10356
G1 X18.554 Y84.518 E28.18756
G1 X19.253 Y84.332 E28.22113
G1 X19.426 Y84.748 F6000.000
G1 F1800
G1 X20.246 Y84.585 E28.25992
G1 X32.143 Y83.018 E28.81662
G1 X55.940 Y79.886 E29.93013
G1 X56.768 Y79.831 E29.96864
G1 X81.164 Y79.782 E31.10043
G1 X118.836 Y79.782 E32.84814
G1 X143.232 Y79.831 E33.97993
G1 X144.060 Y79.886 E34.01844
G1 X179.754 Y84.585 E35.68865
G1 X180.574 Y84.748 E35.72744
G1 X181.331 Y84.950 E35.76380
G1 X182.896 Y85.597 E35.84235
G1 X183.574 Y85.989 E35.87871
G1 X184.905 Y87.012 E35.95657
G1 X185.459 Y87.566 E35.99292
G1 X186.485 Y88.904 E36.07114
G1 X186.877 Y89.582 E36.10748
G1 X187.518 Y91.130 E36.18522
G1 X187.721 Y91.886 E36.22153
G1 X187.941 Y93.558 E36.29976
G1 X187.941 Y170.341 E39.86193
G1 X187.886 Y171.182 E39.90105
G1 X185.141 Y192.031 E40.87664
G1 X184.978 Y192.854 E40.91554
G1 X184.776 Y193.610 E40.95185
G1 X184.129 Y195.173 E41.03031
G1 X183.737 Y195.851 E41.06664
G1 X182.714 Y197.182 E41.14453
G1 X182.160 Y197.736 E41.18088
G1 X180.829 Y198.759 E41.25877
G1 X180.151 Y199.151 E41.29510
G1 X178.586 Y199.798 E41.37366
G1 X177.829 Y200.000 E41.41001
G1 X176.167 Y200.218 E41.48777
G1 X23.833 Y200.218 E48.55495
G1 X22.171 Y200.000 E48.63272
G1 X21.414 Y199.798 E48.66907
G1 X19.849 Y199.151 E48.74762
G1 X19.171 Y198.759 E48.78396
G1 X17.840 Y197.736 E48.86184
G1 X17.286 Y197.182 E48.89819
G1 X16.263 Y195.851 E48.97608
G1 X15.871 Y195.173 E49.01241
G1 X15.224 Y193.610 E49.09087
G1 X15.022 Y192.854 E49.12718
G1 X14.859 Y192.031 E49.16609
G1 X12.114 Y171.182 E50.14167
G1 X12.059 Y170.341 E50.18080
G1 X12.059 Y93.558 E53.74296
G1 X12.279 Y91.886 E53.82119
G1 X12.482 Y91.130 E53.85750
G1 X13.124 Y89.582 E53.93527
G1 X13.515 Y88.904 E53.97158
G1 X14.541 Y87.566 E54.04980
G1 X15.095 Y87.012 E54.08615
G1 X16.426 Y85.989 E54.16403
G1 X17.104 Y85.597 E54.20037
G1 X18.669 Y84.950 E54.27893
G1 X19.368 Y84.763 E54.31250
G1 E52.31250 F3000.00000
G92 E0
G1 X81.613 Y101.869 F6000.000
G1 E2.00000 F3000.00000
G1 F1800
G1 X81.363 Y101.682 E2.01449
G1 X81.138 Y101.465 E2.02897
G1 X80.846 Y101.044 E2.05277
G1 X80.667 Y100.560 E2.07667
G1 X80.612 Y100.216 E2.09282
G1 X80.627 Y99.740 E2.11495
G1 X80.697 Y99.440 E2.12920
G1 X83.666 Y91.134 E2.53845
G1 X83.934 Y90.689 E2.56253
G1 X84.331 Y90.306 E2.58811
G1 X84.779 Y90.052 E2.61202
G1 X85.108 Y89.945 E2.62809
G1 X85.525 Y89.888 E2.64760
G1 X114.790 Y89.890 E4.00527
G1 X115.263 Y89.952 E4.02739
G1 X115.772 Y90.158 E4.05290
G1 X116.185 Y90.466 E4.07675
G1 X116.418 Y90.724 E4.09290
G1 X116.668 Y91.135 E4.11524
G1 X119.644 Y99.473 E4.52596
G1 X119.723 Y99.974 E4.54946
G1 X119.675 Y100.485 E4.57330
G1 X119.574 Y100.820 E4.58951
G1 X119.338 Y101.274 E4.61326
G1 X118.968 Y101.681 E4.63876
G1 X118.509 Y101.981 E4.66424
G1 X118.018 Y102.145 E4.68824
G1 X117.707 Y102.184 E4.70277
G1 X82.948 Y102.177 E6.31534
G1 X82.612 Y102.196 E6.33094
G1 X82.076 Y102.091 E6.35628
G1 X81.667 Y101.895 E6.37734
G1 X81.845 Y101.485 F6000.000
G1 F1800
G1 X81.653 Y101.341 E6.38851
G1 X81.480 Y101.174 E6.39965
G1 X81.245 Y100.836 E6.41878
G1 X81.101 Y100.447 E6.43801
G1 X81.060 Y100.188 E6.45016
G1 X81.072 Y99.798 E6.46829
G1 X81.126 Y99.566 E6.47930
G1 X84.072 Y91.326 E6.88528
G1 X84.287 Y90.970 E6.90459
G1 X84.600 Y90.667 E6.92482
G1 X84.961 Y90.463 E6.94403
G1 X85.209 Y90.381 E6.95615
G1 X85.555 Y90.335 E6.97238
G1 X114.761 Y90.337 E8.32731
G1 X115.148 Y90.387 E8.34543
G1 X115.552 Y90.550 E8.36561
G1 X115.883 Y90.797 E8.38478
G1 X116.059 Y90.992 E8.39695
G1 X116.263 Y91.328 E8.41520
G1 X119.210 Y99.584 E8.82188
G1 X119.274 Y99.988 E8.84085
G1 X119.235 Y100.399 E8.86001
G1 X119.159 Y100.651 E8.87222
G1 X118.969 Y101.017 E8.89133
G1 X118.676 Y101.338 E8.91150
G1 X118.313 Y101.576 E8.93166
G1 X117.919 Y101.707 E8.95092
G1 X117.679 Y101.737 E8.96212
G1 X82.935 Y101.730 E10.57400
G1 X82.643 Y101.747 E10.58759
G1 X82.218 Y101.664 E10.60766
G1 X81.899 Y101.511 E10.62406
G1 X82.078 Y101.102 F6000.000
G1 F1800
G1 X81.822 Y100.884 E10.63966
G1 X81.644 Y100.628 E10.65414
G1 X81.535 Y100.334 E10.66868
G1 X81.507 Y100.160 E10.67684
G1 X81.517 Y99.856 E10.69096
G1 X81.555 Y99.692 E10.69873
G1 X84.477 Y91.518 E11.10145
G1 X84.639 Y91.250 E11.11599
G1 X84.869 Y91.027 E11.13086
G1 X85.142 Y90.873 E11.14538
G1 X85.309 Y90.818 E11.15355
G1 X85.585 Y90.781 E11.16649
G1 X114.732 Y90.783 E12.51869
G1 X115.034 Y90.822 E12.53281
G1 X115.331 Y90.942 E12.54766
G1 X115.581 Y91.129 E12.56215
G1 X115.699 Y91.260 E12.57033
G1 X115.858 Y91.521 E12.58450
G1 X118.775 Y99.695 E12.98714
G1 X118.824 Y100.002 E13.00157
G1 X118.795 Y100.313 E13.01606
G1 X118.744 Y100.482 E13.02427
G1 X118.600 Y100.759 E13.03873
G1 X118.384 Y100.996 E13.05357
G1 X118.117 Y101.171 E13.06842
G1 X117.820 Y101.270 E13.08295
G1 X117.652 Y101.291 E13.09081
G1 X82.922 Y101.284 E14.70199
G1 X82.673 Y101.298 E14.71357
G1 X82.360 Y101.237 E14.72839
G1 X82.132 Y101.128 E14.74011
G1 X82.078 Y101.102 F6000.000
G1 E12.74011 F3000.00000
G92 E0
G1 X75.949 Y102.335 F6000.000
G1 E2.00000 F3000.00000
G1 F1800
G1 X58.052 Y104.685 E2.83742
G1 X58.524 Y108.268 E3.00508
G1 X60.159 Y108.268 E3.08093
G1 X60.624 Y108.392 E3.10327
G1 X61.042 Y108.633 E3.12564
G1 X61.383 Y108.974 E3.14802
G1 X61.624 Y109.393 E3.17042
G1 X61.749 Y109.859 E3.19281
G1 X61.749 Y110.340 E3.21515
G1 X61.624 Y110.805 E3.23749
G1 X61.383 Y111.224 E3.25991
G1 X61.042 Y111.565 E3.28228
G1 X60.624 Y111.806 E3.30465
G1 X60.159 Y111.930 E3.32699
G1 X59.676 Y111.930 E3.34941
G1 X59.210 Y111.806 E3.37178
G1 X58.793 Y111.565 E3.39413
G1 X58.480 Y111.251 E3.41469
G1 X58.208 Y110.797 E3.43924
G1 X58.066 Y110.268 E3.46467
G1 X57.343 Y104.778 E3.72154
G1 X46.154 Y106.247 E4.24506
G1 X46.626 Y109.834 E4.41291
G1 X48.260 Y109.834 E4.48874
G1 X48.727 Y109.959 E4.51116
G1 X49.145 Y110.200 E4.53352
G1 X49.485 Y110.540 E4.55588
G1 X49.726 Y110.958 E4.57823
G1 X49.851 Y111.425 E4.60065
G1 X49.851 Y111.906 E4.62300
G1 X49.726 Y112.372 E4.64538
G1 X49.485 Y112.790 E4.66776
G1 X49.145 Y113.131 E4.69011
G1 X48.726 Y113.372 E4.71251
G1 X48.260 Y113.497 E4.73490
G1 X47.779 Y113.497 E4.75725
G1 X47.313 Y113.372 E4.77964
G1 X46.894 Y113.131 E4.80204
G1 X46.554 Y112.790 E4.82438
G1 X46.313 Y112.372 E4.84677
G1 X46.168 Y111.833 E4.87266
G1 X45.445 Y106.340 E5.12969
G1 X34.256 Y107.809 E5.65320
G1 X34.727 Y111.400 E5.82122
G1 X36.362 Y111.400 E5.89707
G1 X36.828 Y111.525 E5.91946
G1 X37.247 Y111.766 E5.94186
G1 X37.588 Y112.107 E5.96424
G1 X37.829 Y112.525 E5.98661
G1 X37.953 Y112.990 E6.00895
G1 X37.953 Y113.473 E6.03137
G1 X37.829 Y113.939 E6.05374
G1 X37.588 Y114.356 E6.07609
G1 X37.247 Y114.697 E6.09848
G1 X36.829 Y114.938 E6.12083
G1 X36.362 Y115.063 E6.14325
G1 X35.881 Y115.063 E6.16560
G1 X35.415 Y114.938 E6.18797
G1 X34.997 Y114.697 E6.21033
G1 X34.656 Y114.356 E6.23272
G1 X34.415 Y113.938 E6.25510
G1 X34.270 Y113.400 E6.28099
G1 X33.547 Y107.902 E6.53822
G1 X22.356 Y109.371 E7.06183
G1 X22.831 Y112.967 E7.23010
G1 X24.466 Y112.967 E7.30593
G1 X24.931 Y113.091 E7.32828
G1 X25.349 Y113.332 E7.35065
G1 X25.690 Y113.673 E7.37302
G1 X25.931 Y114.092 E7.39544
G1 X26.056 Y114.557 E7.41778
G1 X26.056 Y115.039 E7.44016
G1 X25.931 Y115.504 E7.46250
G1 X25.690 Y115.923 E7.48491
G1 X25.349 Y116.264 E7.50729
G1 X24.931 Y116.505 E7.52966
G1 X24.466 Y116.629 E7.55200
G1 X23.983 Y116.629 E7.57442
G1 X23.517 Y116.505 E7.59679
G1 X23.100 Y116.264 E7.61914
G1 X22.758 Y115.922 E7.64156
G1 X22.517 Y115.505 E7.66391
G1 X22.373 Y114.967 E7.68975
G1 X19.648 Y94.266 E8.65840
G1 X19.648 Y93.709 E8.68426
G1 X19.773 Y93.243 E8.70663
G1 X20.014 Y92.825 E8.72900
G1 X20.355 Y92.484 E8.75139
G1 X20.772 Y92.243 E8.77374
G1 X21.238 Y92.119 E8.79611
G1 X21.721 Y92.119 E8.81852
G1 X22.186 Y92.243 E8.84087
G1 X22.604 Y92.484 E8.86326
G1 X22.945 Y92.825 E8.88564
G1 X23.186 Y93.243 E8.90800
G1 X23.311 Y93.709 E8.93037
G1 X23.311 Y94.190 E8.95272
G1 X23.186 Y94.657 E8.97514
G1 X22.945 Y95.075 E8.99749
G1 X22.605 Y95.415 E9.01984
G1 X22.186 Y95.656 E9.04224
G1 X20.608 Y96.080 E9.11808
G1 X21.035 Y99.333 E9.27027
G1 X32.225 Y97.863 E9.79387
G1 X31.546 Y92.700 E10.03546
G1 X31.546 Y92.142 E10.06137
G1 X31.670 Y91.676 E10.08374
G1 X31.911 Y91.259 E10.10608
G1 X32.252 Y90.918 E10.12848
G1 X32.670 Y90.677 E10.15084
G1 X33.136 Y90.552 E10.17321
G1 X33.618 Y90.552 E10.19560
G1 X34.084 Y90.677 E10.21797
G1 X34.502 Y90.918 E10.24033
G1 X34.843 Y91.259 E10.26273
G1 X35.084 Y91.676 E10.28507
G1 X35.208 Y92.142 E10.30745
G1 X35.208 Y92.625 E10.32987
G1 X35.084 Y93.091 E10.35224
G1 X34.843 Y93.508 E10.37459
G1 X34.502 Y93.849 E10.39698
G1 X34.084 Y94.090 E10.41935
G1 X32.505 Y94.514 E10.49518
G1 X32.934 Y97.771 E10.64756
G1 X44.123 Y96.301 E11.17110
G1 X43.443 Y91.134 E11.41289
G1 X43.443 Y90.577 E11.43875
G1 X43.568 Y90.111 E11.46114
G1 X43.809 Y89.692 E11.48354
G1 X44.150 Y89.352 E11.50588
G1 X44.568 Y89.111 E11.52826
G1 X45.034 Y88.986 E11.55065
G1 X45.515 Y88.986 E11.57300
G1 X45.982 Y89.111 E11.59541
G1 X46.400 Y89.352 E11.61777
G1 X46.740 Y89.692 E11.64013
G1 X46.981 Y90.110 E11.66249
G1 X47.106 Y90.577 E11.68490
G1 X47.106 Y91.058 E11.70725
G1 X46.981 Y91.524 E11.72964
G1 X46.740 Y91.942 E11.75202
G1 X46.400 Y92.283 E11.77436
G1 X45.981 Y92.524 E11.79677
G1 X44.402 Y92.948 E11.87264
G1 X44.833 Y96.209 E12.02523
G1 X56.021 Y94.739 E12.54874
G1 X55.341 Y89.567 E12.79075
G1 X55.341 Y89.010 E12.81661
G1 X55.466 Y88.544 E12.83898
G1 X55.707 Y88.126 E12.86134
G1 X56.048 Y87.785 E12.88374
G1 X56.465 Y87.544 E12.90608
G1 X56.931 Y87.420 E12.92846
G1 X57.414 Y87.420 E12.95087
G1 X57.879 Y87.544 E12.97321
G1 X58.297 Y87.785 E12.99561
G1 X58.638 Y88.126 E13.01799
G1 X58.879 Y88.544 E13.04035
G1 X59.004 Y89.010 E13.06272
G1 X59.004 Y89.491 E13.08507
G1 X58.879 Y89.958 E13.10748
G1 X58.638 Y90.376 E13.12984
G1 X58.297 Y90.717 E13.15222
G1 X57.879 Y90.958 E13.17461
G1 X56.300 Y91.380 E13.25044
G1 X56.730 Y94.647 E13.40330
G1 X78.099 Y91.841 E14.40317
G1 X79.564 Y88.304 E14.58081
G1 X79.857 Y87.921 E14.60315
G1 X80.240 Y87.628 E14.62551
G1 X80.685 Y87.443 E14.64789
G1 X81.239 Y87.371 E14.67378
G1 X118.761 Y87.371 E16.41455
G1 X119.315 Y87.443 E16.44044
G1 X119.760 Y87.628 E16.46282
G1 X120.143 Y87.921 E16.48518
G1 X120.436 Y88.304 E16.50752
G1 X121.901 Y91.841 E16.68516
G1 X143.270 Y94.647 E17.68503
G1 X143.700 Y91.380 E17.83789
G1 X142.121 Y90.958 E17.91372
G1 X141.703 Y90.717 E17.93611
G1 X141.362 Y90.376 E17.95849
G1 X141.121 Y89.958 E17.98085
G1 X140.996 Y89.491 E18.00326
G1 X140.996 Y89.010 E18.02561
G1 X141.121 Y88.544 E18.04798
G1 X141.362 Y88.126 E18.07034
G1 X141.703 Y87.785 E18.09272
G1 X142.121 Y87.544 E18.11511
G1 X142.586 Y87.420 E18.13746
G1 X143.069 Y87.420 E18.15987
G1 X143.535 Y87.544 E18.18225
G1 X143.952 Y87.785 E18.20459
G1 X144.293 Y88.126 E18.22699
G1 X144.534 Y88.544 E18.24935
G1 X144.659 Y89.010 E18.27172
G1 X144.659 Y89.567 E18.29758
G1 X143.979 Y94.739 E18.53959
G1 X155.167 Y96.209 E19.06310
G1 X155.598 Y92.948 E19.21569
G1 X154.018 Y92.524 E19.29156
G1 X153.600 Y92.283 E19.31397
G1 X153.260 Y91.942 E19.33631
G1 X153.019 Y91.524 E19.35869
G1 X152.894 Y91.058 E19.38108
G1 X152.894 Y90.577 E19.40342
G1 X153.019 Y90.110 E19.42584
G1 X153.260 Y89.692 E19.44820
G1 X153.600 Y89.352 E19.47056
G1 X154.018 Y89.111 E19.49292
G1 X154.485 Y88.986 E19.51533
G1 X154.966 Y88.986 E19.53768
G1 X155.432 Y89.111 E19.56007
G1 X155.850 Y89.352 E19.58245
G1 X156.191 Y89.692 E19.60479
G1 X156.432 Y90.111 E19.62719
G1 X156.557 Y90.577 E19.64958
G1 X156.557 Y91.134 E19.67544
G1 X155.877 Y96.301 E19.91722
G1 X167.066 Y97.771 E20.44076
G1 X167.495 Y94.514 E20.59315
G1 X165.916 Y94.090 E20.66898
G1 X165.498 Y93.849 E20.69135
G1 X165.157 Y93.508 E20.71374
G1 X164.916 Y93.091 E20.73609
G1 X164.792 Y92.625 E20.75846
G1 X164.792 Y92.142 E20.78089
G1 X164.916 Y91.676 E20.80326
G1 X165.157 Y91.259 E20.82560
G1 X165.498 Y90.918 E20.84800
G1 X165.916 Y90.677 E20.87036
G1 X166.382 Y90.552 E20.89273
G1 X166.864 Y90.552 E20.91512
G1 X167.330 Y90.677 E20.93749
G1 X167.748 Y90.918 E20.95985
G1 X168.089 Y91.259 E20.98225
G1 X168.330 Y91.676 E21.00459
G1 X168.454 Y92.142 E21.02697
G1 X168.454 Y92.700 E21.05287
G1 X167.775 Y97.863 E21.29446
G1 X178.965 Y99.333 E21.81806
G1 X179.392 Y96.080 E21.97026
G1 X177.814 Y95.656 E22.04609
G1 X177.395 Y95.415 E22.06849
G1 X177.055 Y95.075 E22.09084
G1 X176.814 Y94.657 E22.11320
G1 X176.689 Y94.190 E22.13561
G1 X176.689 Y93.709 E22.15796
G1 X176.814 Y93.243 E22.18033
G1 X177.055 Y92.825 E22.20269
G1 X177.396 Y92.484 E22.22507
G1 X177.814 Y92.243 E22.24746
G1 X178.279 Y92.119 E22.26981
G1 X178.762 Y92.119 E22.29222
G1 X179.228 Y92.243 E22.31460
G1 X179.645 Y92.484 E22.33694
G1 X179.986 Y92.825 E22.35934
G1 X180.227 Y93.243 E22.38170
G1 X180.352 Y93.709 E22.40407
G1 X180.352 Y94.266 E22.42993
G1 X177.627 Y114.967 E23.39858
G1 X177.483 Y115.505 E23.42442
G1 X177.242 Y115.922 E23.44677
G1 X176.900 Y116.264 E23.46919
G1 X176.483 Y116.505 E23.49154
G1 X176.017 Y116.629 E23.51392
G1 X175.534 Y116.629 E23.53633
G1 X175.069 Y116.505 E23.55867
G1 X174.651 Y116.264 E23.58105
G1 X174.310 Y115.923 E23.60342
G1 X174.069 Y115.504 E23.62583
G1 X173.944 Y115.039 E23.64817
G1 X173.944 Y114.557 E23.67056
G1 X174.069 Y114.092 E23.69290
G1 X174.310 Y113.673 E23.71531
G1 X174.651 Y113.332 E23.73768
G1 X175.069 Y113.091 E23.76005
G1 X175.534 Y112.967 E23.78240
G1 X177.169 Y112.967 E23.85823
G1 X177.644 Y109.371 E24.02651
G1 X166.453 Y107.902 E24.55011
G1 X165.730 Y113.400 E24.80734
G1 X165.585 Y113.938 E24.83323
G1 X165.344 Y114.356 E24.85561
G1 X165.003 Y114.697 E24.87800
G1 X164.585 Y114.938 E24.90036
G1 X164.119 Y115.063 E24.92273
G1 X163.638 Y115.063 E24.94508
G1 X163.171 Y114.938 E24.96750
G1 X162.753 Y114.697 E24.98985
