; generated by Slic3r 1.3.1-dev on 2020-04-12 at 10:39:33

; external perimeters extrusion width = 0.44mm (3.94mm^3/s)
; perimeters extrusion width = 0.48mm (8.80mm^3/s)
; infill extrusion width = 0.48mm (8.80mm^3/s)
; solid infill extrusion width = 0.48mm (2.51mm^3/s)
; top infill extrusion width = 0.48mm (1.88mm^3/s)

M107
M190 S50 ; set bed temperature and wait for it to be reached
M104 S205 ; set temperature
G28 ; home all axes
G1 Z5 F5000 ; lift nozzle

; Filament gcode

M109 S205 ; set temperature and wait for it to be reached
G21 ; set units to millimeters
G90 ; use absolute coordinates
M82 ; use absolute distances for extrusion
G92 E0
G92 E0
G1 Z0.300 F6000.000
G1 E-2.00000 F3000.00000
G92 E0
G1 X28.321 Y31.555 F6000.000
G1 E2.00000 F3000.00000
G1 F1800
G1 X28.867 Y31.114 E2.04688
G1 X29.551 Y30.624 E2.10308
G1 X30.297 Y30.129 E2.16289
G1 X30.956 Y29.734 E2.21425
G1 X33.830 Y28.851 E2.41505
G1 X43.642 Y28.025 E3.07288
G1 X44.235 Y28.000 E3.11255
G1 X158.235 Y28.000 E10.72837
G1 X160.622 Y28.415 E10.89025
G1 X161.499 Y28.763 E10.95323
G1 X162.418 Y29.180 E11.02070
G1 X162.913 Y29.426 E11.05759
G1 X163.525 Y29.769 E11.10447
G1 X164.561 Y30.418 E11.18611
G1 X165.823 Y31.299 E11.28896
G1 X166.397 Y31.752 E11.33780
G1 X167.266 Y32.514 E11.41502
G1 X168.211 Y33.439 E11.50335
G1 X168.796 Y34.075 E11.56110
G1 X169.314 Y34.692 E11.61492
G1 X169.975 Y35.541 E11.68676
G1 X170.755 Y36.663 E11.77808
G1 X171.018 Y37.078 E11.81089
G1 X171.654 Y38.176 E11.89568
G1 X172.099 Y39.023 E11.95959
G1 X172.621 Y40.163 E12.04333
G1 X173.115 Y41.405 E12.13263
G1 X173.498 Y42.565 E12.21425
G1 X173.889 Y43.964 E12.31130
G1 X174.143 Y45.102 E12.38918
G1 X174.371 Y46.445 E12.48017
G1 X174.513 Y47.758 E12.56841
G1 X179.555 Y107.671 E16.58507
G1 X179.592 Y109.077 E16.67903
G1 X179.592 Y170.923 E20.81070
G1 X179.575 Y171.926 E20.87768
G1 X179.515 Y172.844 E20.93916
G1 X174.487 Y232.542 E24.94144
G1 X174.321 Y233.905 E25.03315
G1 X174.107 Y235.074 E25.11257
G1 X173.831 Y236.265 E25.19420
G1 X173.298 Y238.078 E25.32046
G1 X173.115 Y238.595 E25.35712
G1 X172.621 Y239.837 E25.44643
G1 X172.099 Y240.977 E25.53016
G1 X171.654 Y241.824 E25.59408
G1 X171.018 Y242.922 E25.67886
G1 X170.228 Y244.111 E25.77421
G1 X169.452 Y245.135 E25.86003
G1 X168.796 Y245.925 E25.92863
G1 X168.211 Y246.561 E25.98638
G1 X167.266 Y247.486 E26.07471
G1 X166.397 Y248.248 E26.15194
G1 X165.823 Y248.701 E26.20077
G1 X164.561 Y249.582 E26.30363
G1 X163.525 Y250.231 E26.38526
G1 X162.913 Y250.574 E26.43216
G1 X162.157 Y250.943 E26.48833
G1 X161.338 Y251.306 E26.54819
G1 X160.622 Y251.585 E26.59955
G1 X158.235 Y252.000 E26.76137
G1 X44.235 Y252.000 E34.37719
G1 X43.642 Y251.975 E34.41686
G1 X33.830 Y251.149 E35.07469
G1 X30.956 Y250.266 E35.27549
G1 X30.151 Y249.776 E35.33848
G1 X29.550 Y249.376 E35.38669
G1 X28.867 Y248.886 E35.44285
G1 X28.321 Y248.445 E35.48974
G1 X27.119 Y247.359 E35.59798
G1 X26.311 Y246.552 E35.67423
G1 X25.821 Y246.010 E35.72305
G1 X25.092 Y245.113 E35.80027
G1 X24.314 Y244.043 E35.88862
G1 X23.844 Y243.319 E35.94635
G1 X23.437 Y242.623 E36.00019
G1 X22.927 Y241.676 E36.07202
G1 X22.345 Y240.440 E36.16334
G1 X21.790 Y239.014 E36.26556
G1 X21.415 Y237.888 E36.34483
G1 X21.091 Y236.677 E36.42857
G1 X20.811 Y235.370 E36.51788
G1 X20.717 Y234.829 E36.55454
G1 X20.495 Y232.952 E36.68081
G1 X20.442 Y232.165 E36.73353
G1 X20.409 Y231.174 E36.79976
G1 X20.417 Y48.447 E49.00691
G1 X20.476 Y47.283 E49.08478
G1 X20.628 Y45.838 E49.18182
G1 X20.811 Y44.630 E49.26343
G1 X21.091 Y43.323 E49.35274
G1 X21.415 Y42.112 E49.43649
G1 X21.712 Y41.203 E49.50039
G1 X22.156 Y40.014 E49.58518
G1 X22.735 Y38.710 E49.68052
G1 X23.329 Y37.570 E49.76634
G1 X23.844 Y36.682 E49.83495
G1 X24.314 Y35.956 E49.89271
G1 X25.091 Y34.887 E49.98103
G1 X25.821 Y33.990 E50.05826
G1 X26.311 Y33.447 E50.10709
G1 X27.408 Y32.368 E50.20994
G1 X28.276 Y31.594 E50.28757
G1 X28.677 Y31.954 F6000.000
G1 F1800
G1 X29.182 Y31.547 E50.33090
G1 X29.848 Y31.070 E50.38564
G1 X30.583 Y30.582 E50.44457
G1 X31.219 Y30.201 E50.49410
G1 X33.875 Y29.385 E50.67970
G1 X43.687 Y28.559 E51.33752
G1 X44.235 Y28.536 E51.37419
G1 X158.235 Y28.536 E58.99001
G1 X160.442 Y28.920 E59.13962
G1 X161.280 Y29.252 E59.19990
G1 X162.180 Y29.660 E59.26591
G1 X162.675 Y29.906 E59.30280
G1 X163.241 Y30.223 E59.34613
G1 X164.276 Y30.872 E59.42777
G1 X165.514 Y31.736 E59.52861
G1 X166.044 Y32.155 E59.57374
G1 X166.913 Y32.917 E59.65096
G1 X167.832 Y33.817 E59.73692
G1 X168.398 Y34.433 E59.79281
G1 X168.901 Y35.033 E59.84512
G1 X169.552 Y35.868 E59.91583
G1 X170.313 Y36.964 E60.00497
G1 X170.555 Y37.348 E60.03530
G1 X171.183 Y38.431 E60.11892
G1 X171.615 Y39.251 E60.18080
G1 X172.123 Y40.361 E60.26239
G1 X172.618 Y41.603 E60.35170
G1 X172.987 Y42.724 E60.43054
G1 X173.368 Y44.087 E60.52512
G1 X173.617 Y45.202 E60.60141
G1 X173.839 Y46.508 E60.68990
G1 X173.979 Y47.803 E60.77695
G1 X179.021 Y107.712 E64.79334
G1 X179.057 Y109.077 E64.88453
G1 X179.057 Y170.923 E69.01621
G1 X179.039 Y171.915 E69.08246
G1 X178.981 Y172.799 E69.14166
G1 X173.953 Y232.497 E73.14391
G1 X173.793 Y233.815 E73.23264
G1 X173.617 Y234.798 E73.29936
G1 X173.368 Y235.913 E73.37564
G1 X172.987 Y237.276 E73.47021
G1 X172.618 Y238.397 E73.54906
G1 X172.123 Y239.639 E73.63837
G1 X171.615 Y240.749 E73.71995
G1 X171.183 Y241.569 E73.78184
G1 X170.555 Y242.652 E73.86545
G1 X169.786 Y243.809 E73.95832
G1 X169.029 Y244.807 E74.04196
G1 X168.398 Y245.567 E74.10793
G1 X167.832 Y246.183 E74.16382
G1 X166.913 Y247.083 E74.24977
G1 X166.044 Y247.845 E74.32700
G1 X165.514 Y248.264 E74.37213
G1 X164.276 Y249.128 E74.47297
G1 X163.241 Y249.777 E74.55461
G1 X162.675 Y250.094 E74.59795
G1 X161.939 Y250.454 E74.65266
G1 X161.132 Y250.812 E74.71164
G1 X160.441 Y251.081 E74.76118
G1 X158.235 Y251.464 E74.91074
G1 X44.235 Y251.464 E82.52655
G1 X43.687 Y251.441 E82.56322
G1 X33.875 Y250.615 E83.22105
G1 X31.219 Y249.799 E83.40664
G1 X30.448 Y249.330 E83.46693
G1 X29.847 Y248.930 E83.51513
G1 X29.182 Y248.453 E83.56983
G1 X28.677 Y248.046 E83.61317
G1 X27.497 Y246.980 E83.71940
G1 X26.689 Y246.173 E83.79565
G1 X26.236 Y245.672 E83.84077
G1 X25.507 Y244.775 E83.91799
G1 X24.751 Y243.734 E84.00396
G1 X24.297 Y243.032 E84.05983
G1 X23.901 Y242.356 E84.11215
G1 X23.399 Y241.424 E84.18287
G1 X22.832 Y240.216 E84.27201
G1 X22.291 Y238.825 E84.37174
G1 X21.931 Y237.745 E84.44781
G1 X21.615 Y236.565 E84.52941
G1 X21.335 Y235.257 E84.61872
G1 X21.248 Y234.758 E84.65260
G1 X21.028 Y232.900 E84.77759
G1 X20.977 Y232.140 E84.82844
G1 X20.944 Y231.163 E84.89377
G1 X20.952 Y48.458 E97.09948
G1 X21.011 Y47.317 E97.17576
G1 X21.159 Y45.909 E97.27033
G1 X21.335 Y44.743 E97.34917
G1 X21.615 Y43.435 E97.43848
G1 X21.931 Y42.255 E97.52008
G1 X22.219 Y41.375 E97.58195
G1 X22.657 Y40.203 E97.66557
G1 X23.222 Y38.933 E97.75843
G1 X23.802 Y37.823 E97.84207
G1 X24.297 Y36.968 E97.90805
G1 X24.751 Y36.266 E97.96394
G1 X25.507 Y35.225 E98.04989
G1 X26.236 Y34.328 E98.12712
G1 X26.689 Y33.827 E98.17225
G1 X27.765 Y32.768 E98.27309
G1 X28.632 Y31.994 E98.35072
G1 E96.35072 F3000.00000
G92 E0
G1 X51.992 Y120.423 F6000.000
G1 E2.00000 F3000.00000
G1 F1800
G1 X51.992 Y159.577 E4.61574
G1 X41.187 Y159.577 E5.33759
G1 X41.187 Y120.423 E7.95333
G1 X51.932 Y120.423 E8.67117
G1 X51.457 Y120.958 F6000.000
G1 F1800
G1 X51.457 Y159.042 E11.21535
G1 X41.723 Y159.042 E11.86563
G1 X41.723 Y120.958 E14.40981
G1 X51.397 Y120.958 E15.05608
G1 X50.921 Y121.494 F6000.000
G1 F1800
G1 X50.921 Y158.506 E17.52869
G1 X42.258 Y158.506 E18.10741
G1 X42.258 Y121.494 E20.58002
G1 X50.861 Y121.494 E21.15474
G1 X51.282 Y121.321 F6000.000
G1 E19.15474 F3000.00000
G92 E0
G1 X49.528 Y116.040 F6000.000
G1 E2.00000 F3000.00000
G1 F1800
G1 X51.191 Y115.944 E2.11127
G1 X52.142 Y116.138 E2.17613
G1 X52.716 Y116.326 E2.21653
G1 X52.716 Y163.674 E5.37958
G1 X52.142 Y163.862 E5.41998
G1 X51.191 Y164.056 E5.48484
G1 X49.528 Y163.960 E5.59611
G1 X48.588 Y175.122 E6.34442
G1 X55.001 Y175.662 E6.77437
G1 X55.484 Y173.650 E6.91258
G1 X55.675 Y172.520 E6.98915
G1 X55.776 Y171.462 E7.06014
G1 X55.793 Y170.702 E7.11091
G1 X55.856 Y170.433 E7.12936
G1 X56.026 Y170.139 E7.15206
G1 X56.177 Y170.000 E7.16579
G1 X56.285 Y169.945 E7.17386
G1 X56.424 Y169.917 E7.18335
G1 X56.553 Y169.922 E7.19194
G1 X56.717 Y169.969 E7.20335
G1 X56.791 Y170.010 E7.20900
G1 X56.944 Y170.166 E7.22362
G1 X57.099 Y170.495 E7.24792
G1 X57.149 Y170.768 E7.26644
G1 X57.135 Y171.714 E7.32968
G1 X57.078 Y172.415 E7.37662
G1 X56.994 Y173.129 E7.42464
G1 X56.855 Y173.903 E7.47722
G1 X56.591 Y175.004 E7.55286
G1 X56.252 Y176.135 E7.63170
G1 X55.794 Y177.283 E7.71426
G1 X55.482 Y177.947 E7.76332
G1 X54.748 Y179.238 E7.86252
G1 X54.280 Y179.925 E7.91803
G1 X53.492 Y180.919 E8.00277
G1 X53.212 Y181.230 E8.03075
G1 X52.667 Y181.776 E8.08226
G1 X51.901 Y182.448 E8.15031
G1 X51.528 Y182.696 E8.18025
G1 X51.030 Y183.066 E8.22173
G1 X50.099 Y183.650 E8.29515
G1 X49.694 Y183.851 E8.32534
G1 X49.031 Y184.143 E8.37375
G1 X47.836 Y184.042 E8.45388
G1 X46.916 Y194.967 E9.18630
G1 X53.329 Y195.507 E9.61625
G1 X53.812 Y193.495 E9.75446
G1 X54.003 Y192.365 E9.83103
G1 X54.104 Y191.308 E9.90202
G1 X54.121 Y190.548 E9.95279
G1 X54.184 Y190.279 E9.97124
G1 X54.354 Y189.985 E9.99394
G1 X54.505 Y189.845 E10.00767
G1 X54.613 Y189.790 E10.01575
G1 X54.752 Y189.763 E10.02523
G1 X54.881 Y189.767 E10.03382
G1 X55.045 Y189.814 E10.04524
G1 X55.119 Y189.855 E10.05088
G1 X55.272 Y190.012 E10.06550
G1 X55.427 Y190.341 E10.08980
G1 X55.474 Y190.599 E10.10735
G1 X55.462 Y191.567 E10.17199
G1 X55.320 Y192.980 E10.26690
G1 X55.182 Y193.758 E10.31965
G1 X55.010 Y194.515 E10.37157
G1 X54.578 Y195.984 E10.47382
G1 X54.122 Y197.128 E10.55611
G1 X53.810 Y197.793 E10.60517
G1 X53.076 Y199.084 E10.70437
G1 X52.616 Y199.759 E10.75896
G1 X52.233 Y200.223 E10.79917
G1 X52.096 Y200.428 E10.81564
G1 X51.529 Y201.086 E10.87364
G1 X50.995 Y201.621 E10.92417
G1 X50.229 Y202.293 E10.99222
G1 X49.856 Y202.541 E11.02216
G1 X49.358 Y202.912 E11.06363
G1 X48.427 Y203.496 E11.13705
G1 X48.022 Y203.697 E11.16725
G1 X47.359 Y203.988 E11.21565
G1 X46.165 Y203.888 E11.29568
G1 X45.257 Y214.668 E12.01842
G1 X51.671 Y215.208 E12.44837
G1 X52.153 Y213.197 E12.58658
G1 X52.345 Y212.066 E12.66315
G1 X52.446 Y211.009 E12.73414
G1 X52.463 Y210.249 E12.78491
G1 X52.525 Y209.980 E12.80337
G1 X52.696 Y209.686 E12.82606
G1 X52.847 Y209.546 E12.83979
G1 X52.954 Y209.492 E12.84787
G1 X53.094 Y209.464 E12.85735
G1 X53.222 Y209.468 E12.86594
G1 X53.386 Y209.515 E12.87736
G1 X53.460 Y209.556 E12.88301
G1 X53.613 Y209.713 E12.89762
G1 X53.769 Y210.042 E12.92192
G1 X53.816 Y210.300 E12.93947
G1 X53.804 Y211.268 E13.00411
G1 X53.662 Y212.681 E13.09902
G1 X53.523 Y213.459 E13.15177
G1 X53.351 Y214.217 E13.20369
G1 X52.920 Y215.685 E13.30593
G1 X52.464 Y216.829 E13.38823
G1 X52.152 Y217.494 E13.43729
G1 X51.418 Y218.785 E13.53649
G1 X50.957 Y219.460 E13.59108
G1 X50.574 Y219.924 E13.63129
G1 X50.438 Y220.130 E13.64776
G1 X49.871 Y220.787 E13.70576
G1 X49.337 Y221.323 E13.75629
G1 X48.571 Y221.994 E13.82434
G1 X48.198 Y222.242 E13.85427
G1 X47.700 Y222.613 E13.89575
G1 X46.769 Y223.197 E13.96917
G1 X46.364 Y223.398 E13.99937
G1 X45.701 Y223.689 E14.04777
G1 X44.506 Y223.589 E14.12784
G1 X43.586 Y234.514 E14.86027
G1 X49.999 Y235.054 E15.29023
G1 X50.482 Y233.042 E15.42843
G1 X50.674 Y231.912 E15.50501
G1 X50.775 Y230.854 E15.57599
G1 X50.792 Y230.095 E15.62676
G1 X50.854 Y229.825 E15.64522
G1 X51.024 Y229.531 E15.66792
G1 X51.176 Y229.392 E15.68165
G1 X51.283 Y229.337 E15.68972
G1 X51.423 Y229.310 E15.69921
G1 X51.551 Y229.314 E15.70780
G1 X51.715 Y229.361 E15.71921
G1 X51.789 Y229.402 E15.72486
G1 X51.942 Y229.558 E15.73948
G1 X52.098 Y229.887 E15.76378
G1 X52.144 Y230.146 E15.78133
G1 X52.133 Y231.111 E15.84583
G1 X52.077 Y231.807 E15.89245
G1 X51.992 Y232.521 E15.94047
G1 X51.852 Y233.304 E15.99365
G1 X51.680 Y234.062 E16.04557
G1 X51.249 Y235.531 E16.14781
G1 X50.793 Y236.675 E16.23010
G1 X50.480 Y237.340 E16.27916
G1 X49.746 Y238.630 E16.37836
G1 X49.286 Y239.306 E16.43296
G1 X48.903 Y239.770 E16.47316
G1 X48.767 Y239.975 E16.48963
G1 X48.200 Y240.633 E16.54763
G1 X47.666 Y241.168 E16.59816
G1 X46.900 Y241.840 E16.66621
G1 X46.526 Y242.088 E16.69615
G1 X46.029 Y242.459 E16.73763
G1 X45.097 Y243.043 E16.81104
G1 X44.700 Y243.240 E16.84072
G1 X44.011 Y243.534 E16.89073
G1 X34.877 Y242.764 E17.50307
G1 X34.247 Y242.360 E17.55308
G1 X33.888 Y242.099 E17.58275
G1 X33.068 Y241.367 E17.65617
G1 X32.639 Y240.918 E17.69765
G1 X32.312 Y240.611 E17.72759
G1 X31.670 Y239.821 E17.79564
G1 X31.224 Y239.192 E17.84715
G1 X31.000 Y238.838 E17.87514
G1 X30.389 Y237.727 E17.95988
G1 X30.039 Y236.964 E18.01591
G1 X29.711 Y236.094 E18.07805
G1 X29.640 Y235.839 E18.09573
G1 X29.530 Y235.558 E18.11587
G1 X29.338 Y234.868 E18.16371
G1 X29.080 Y233.664 E18.24601
G1 X28.900 Y232.144 E18.34825
G1 X28.857 Y231.368 E18.40017
G1 X28.850 Y230.578 E18.45292
G1 X28.911 Y229.562 E18.52090
G1 X28.947 Y229.161 E18.54784
G1 X29.097 Y228.205 E18.61248
G1 X29.187 Y227.958 E18.63003
G1 X29.395 Y227.660 E18.65433
G1 X29.482 Y227.582 E18.66211
G1 X29.652 Y227.503 E18.67462
G1 X29.821 Y227.484 E18.68604
G1 X29.949 Y227.501 E18.69462
G1 X30.081 Y227.552 E18.70411
G1 X30.178 Y227.624 E18.71219
G1 X30.304 Y227.787 E18.72592
G1 X30.423 Y228.105 E18.74861
G1 X30.439 Y228.381 E18.76707
G1 X30.329 Y229.133 E18.81784
G1 X30.252 Y230.192 E18.88883
G1 X30.252 Y231.339 E18.96540
G1 X30.391 Y233.403 E19.10361
G1 X36.804 Y233.943 E19.53356
G1 X37.724 Y223.018 E20.26599
G1 X36.530 Y222.917 E20.34606
G1 X35.925 Y222.519 E20.39446
G1 X35.559 Y222.253 E20.42466
G1 X34.739 Y221.522 E20.49807
G1 X34.310 Y221.073 E20.53955
G1 X33.984 Y220.766 E20.56949
G1 X33.341 Y219.976 E20.63754
G1 X32.904 Y219.358 E20.68807
G1 X32.455 Y218.615 E20.74607
G1 X32.355 Y218.390 E20.76254
G1 X32.054 Y217.868 E20.80274
G1 X31.710 Y217.118 E20.85786
G1 X31.382 Y216.248 E20.92000
G1 X31.312 Y215.993 E20.93768
G1 X31.201 Y215.713 E20.95782
G1 X31.009 Y215.023 E21.00566
G1 X30.750 Y213.814 E21.08822
G1 X30.605 Y212.643 E21.16706
G1 X30.528 Y211.514 E21.24270
G1 X30.522 Y210.733 E21.29486
G1 X30.582 Y209.717 E21.36285
G1 X30.619 Y209.310 E21.39015
G1 X30.767 Y208.364 E21.45409
G1 X30.858 Y208.112 E21.47198
G1 X31.066 Y207.814 E21.49628
G1 X31.243 Y207.685 E21.51090
G1 X31.323 Y207.657 E21.51654
G1 X31.492 Y207.638 E21.52796
G1 X31.620 Y207.656 E21.53655
G1 X31.753 Y207.706 E21.54603
G1 X31.850 Y207.778 E21.55411
G1 X31.975 Y207.941 E21.56784
G1 X32.094 Y208.259 E21.59053
G1 X32.111 Y208.535 E21.60899
G1 X32.000 Y209.287 E21.65976
G1 X31.923 Y210.347 E21.73075
G1 X31.923 Y211.493 E21.80732
G1 X32.062 Y213.557 E21.94553
G1 X38.476 Y214.097 E22.37548
G1 X39.383 Y203.317 E23.09823
G1 X38.190 Y203.216 E23.17827
G1 X37.584 Y202.818 E23.22666
G1 X37.219 Y202.552 E23.25686
G1 X36.399 Y201.821 E23.33028
G1 X35.970 Y201.372 E23.37176
G1 X35.643 Y201.065 E23.40169
G1 X35.000 Y200.275 E23.46974
G1 X34.563 Y199.657 E23.52028
G1 X34.115 Y198.914 E23.57827
G1 X34.014 Y198.689 E23.59474
G1 X33.714 Y198.167 E23.63495
G1 X33.370 Y197.417 E23.69006
G1 X33.042 Y196.547 E23.75220
G1 X32.971 Y196.292 E23.76988
G1 X32.861 Y196.012 E23.79003
G1 X32.669 Y195.322 E23.83787
G1 X32.410 Y194.113 E23.92042
G1 X32.264 Y192.942 E23.99926
G1 X32.188 Y191.812 E24.07490
G1 X32.181 Y191.032 E24.12706
G1 X32.241 Y190.016 E24.19505
G1 X32.278 Y189.609 E24.22235
G1 X32.426 Y188.663 E24.28629
G1 X32.517 Y188.411 E24.30418
G1 X32.726 Y188.113 E24.32848
G1 X32.903 Y187.984 E24.34310
G1 X32.982 Y187.956 E24.34875
G1 X33.152 Y187.937 E24.36016
G1 X33.279 Y187.955 E24.36875
G1 X33.412 Y188.005 E24.37824
G1 X33.509 Y188.077 E24.38631
G1 X33.635 Y188.240 E24.40004
G1 X33.753 Y188.558 E24.42274
G1 X33.770 Y188.834 E24.44119
G1 X33.660 Y189.586 E24.49196
G1 X33.583 Y190.646 E24.56295
G1 X33.583 Y191.792 E24.63952
G1 X33.722 Y193.856 E24.77773
G1 X40.135 Y194.396 E25.20768
G1 X41.055 Y183.473 E25.93996
G1 X39.863 Y183.373 E26.01988
G1 X39.255 Y182.973 E26.06852
G1 X38.889 Y182.707 E26.09869
G1 X38.069 Y181.976 E26.17212
G1 X37.639 Y181.526 E26.21366
G1 X37.314 Y181.220 E26.24353
