; generated by Slic3r 1.3.1-dev on 2020-04-16 at 17:24:25

; external perimeters extrusion width = 0.44mm (3.94mm^3/s)
; perimeters extrusion width = 0.48mm (8.80mm^3/s)
; infill extrusion width = 0.48mm (8.80mm^3/s)
; solid infill extrusion width = 0.48mm (2.51mm^3/s)
; top infill extrusion width = 0.48mm (1.88mm^3/s)

M107
M190 S50 ; set bed temperature and wait for it to be reached
M104 S205 ; set temperature
G28 ; home all axes
G1 Z5 F5000 ; lift nozzle

; Filament gcode

M109 S205 ; set temperature and wait for it to be reached
G21 ; set units to millimeters
G90 ; use absolute coordinates
M82 ; use absolute distances for extrusion
G92 E0
G92 E0
G1 Z0.300 F6000.000
G1 E-2.00000 F3000.00000
G92 E0
G1 X20.163 Y102.965 F6000.000
G1 E2.00000 F3000.00000
G1 F1800
G1 X55.856 Y98.265 E4.40508
G1 X56.765 Y98.205 E4.46593
G1 X81.163 Y98.157 E6.09585
G1 X118.835 Y98.157 E8.61254
G1 X143.233 Y98.205 E10.24246
G1 X144.142 Y98.265 E10.30330
G1 X179.835 Y102.965 E12.70839
G1 X180.720 Y103.140 E12.76862
G1 X181.476 Y103.340 E12.82086
G1 X183.212 Y104.058 E12.94638
G1 X183.892 Y104.452 E12.99889
G1 X185.347 Y105.570 E13.12149
G1 X185.899 Y106.122 E13.17364
G1 X187.025 Y107.590 E13.29727
G1 X187.418 Y108.271 E13.34976
G1 X188.123 Y109.976 E13.47303
G1 X188.325 Y110.733 E13.52534
G1 X188.564 Y112.558 E13.64832
G1 X188.564 Y151.340 E16.23916
G1 X188.504 Y152.263 E16.30094
G1 X185.760 Y173.111 E17.70571
G1 X185.582 Y174.009 E17.76687
G1 X185.380 Y174.767 E17.81927
G1 X184.669 Y176.485 E17.94353
G1 X184.277 Y177.163 E17.99585
G1 X183.155 Y178.624 E18.11888
G1 X182.601 Y179.178 E18.17123
G1 X181.141 Y180.299 E18.29423
G1 X180.462 Y180.692 E18.34657
G1 X178.727 Y181.407 E18.47198
G1 X177.969 Y181.607 E18.52435
G1 X176.165 Y181.841 E18.64587
G1 X23.831 Y181.841 E28.82261
G1 X22.023 Y181.606 E28.94444
G1 X21.267 Y181.406 E28.99668
G1 X19.536 Y180.692 E29.12179
G1 X18.857 Y180.300 E29.17411
G1 X17.397 Y179.178 E29.29713
G1 X16.843 Y178.624 E29.34947
G1 X15.721 Y177.163 E29.47250
G1 X15.329 Y176.485 E29.52483
G1 X14.618 Y174.767 E29.64907
G1 X14.416 Y174.009 E29.70148
G1 X14.238 Y173.111 E29.76264
G1 X11.494 Y152.263 E31.16741
G1 X11.434 Y151.340 E31.22919
G1 X11.434 Y112.558 E33.82004
G1 X11.673 Y110.733 E33.94303
G1 X11.875 Y109.977 E33.99530
G1 X12.581 Y108.270 E34.11865
G1 X12.973 Y107.590 E34.17108
G1 X14.099 Y106.122 E34.29471
G1 X14.651 Y105.570 E34.34686
G1 X16.106 Y104.452 E34.46946
G1 X16.786 Y104.058 E34.52196
G1 X18.522 Y103.340 E34.64749
G1 X19.279 Y103.140 E34.69974
G1 X20.104 Y102.977 E34.75596
G1 X20.233 Y103.496 F6000.000
G1 F1800
G1 X55.926 Y98.796 E37.16103
G1 X56.766 Y98.740 E37.21727
G1 X81.163 Y98.692 E38.84712
G1 X118.835 Y98.692 E41.36381
G1 X143.232 Y98.740 E42.99366
G1 X144.072 Y98.796 E43.04990
G1 X179.765 Y103.496 E45.45498
G1 X180.583 Y103.658 E45.51065
G1 X181.339 Y103.858 E45.56289
G1 X182.943 Y104.521 E45.67890
G1 X183.623 Y104.915 E45.73141
G1 X184.968 Y105.949 E45.84472
G1 X185.520 Y106.501 E45.89687
G1 X186.561 Y107.858 E46.01113
G1 X186.954 Y108.539 E46.06362
G1 X187.605 Y110.115 E46.17756
G1 X187.807 Y110.871 E46.22986
G1 X188.029 Y112.558 E46.34352
G1 X188.029 Y151.340 E48.93437
G1 X187.973 Y152.193 E48.99147
G1 X185.229 Y173.041 E50.39624
G1 X185.064 Y173.871 E50.45277
G1 X184.862 Y174.629 E50.50517
G1 X184.205 Y176.217 E50.62002
G1 X183.813 Y176.895 E50.67233
G1 X182.776 Y178.245 E50.78605
G1 X182.222 Y178.799 E50.83840
G1 X180.873 Y179.836 E50.95208
G1 X180.194 Y180.228 E51.00441
G1 X178.590 Y180.889 E51.12032
G1 X177.832 Y181.089 E51.17270
G1 X176.165 Y181.306 E51.28502
G1 X23.831 Y181.306 E61.46175
G1 X22.160 Y181.088 E61.57435
G1 X21.404 Y180.888 E61.62660
G1 X19.804 Y180.228 E61.74222
G1 X19.126 Y179.836 E61.79455
G1 X17.776 Y178.799 E61.90825
G1 X17.222 Y178.245 E61.96059
G1 X16.185 Y176.895 E62.07430
G1 X15.793 Y176.217 E62.12663
G1 X15.136 Y174.629 E62.24146
G1 X14.934 Y173.871 E62.29386
G1 X14.769 Y173.041 E62.35040
G1 X12.025 Y152.193 E63.75517
G1 X11.969 Y151.340 E63.81227
G1 X11.969 Y112.558 E66.40311
G1 X12.191 Y110.871 E66.51679
G1 X12.393 Y110.115 E66.56906
G1 X13.045 Y108.538 E66.68306
G1 X13.437 Y107.858 E66.73550
G1 X14.478 Y106.501 E66.84976
G1 X15.030 Y105.949 E66.90192
G1 X16.374 Y104.915 E67.01523
G1 X17.054 Y104.521 E67.06773
G1 X18.659 Y103.858 E67.18375
G1 X19.416 Y103.658 E67.23600
G1 X20.174 Y103.508 E67.28766
G1 E65.28766 F3000.00000
G92 E0
G1 X22.370 Y132.195 F6000.000
G1 E2.00000 F3000.00000
G1 F1800
G1 X24.437 Y132.195 E2.13808
G1 X24.842 Y132.302 E2.16607
G1 X25.207 Y132.515 E2.19427
G1 X25.506 Y132.813 E2.22250
G1 X25.718 Y133.180 E2.25084
G1 X25.828 Y133.586 E2.27894
G1 X25.828 Y134.007 E2.30703
G1 X25.718 Y134.416 E2.33532
G1 X25.506 Y134.782 E2.36357
G1 X25.207 Y135.081 E2.39185
G1 X24.843 Y135.291 E2.41990
G1 X24.437 Y135.399 E2.44799
G1 X24.009 Y135.399 E2.47654
G1 X23.603 Y135.291 E2.50463
G1 X23.239 Y135.081 E2.53269
G1 X22.940 Y134.782 E2.56096
G1 X22.729 Y134.417 E2.58910
G1 X22.597 Y133.921 E2.62341
G1 X22.378 Y132.255 E2.73568
G1 E0.73568 F3000.00000
G92 E0
G1 X34.266 Y130.627 F6000.000
G1 E2.00000 F3000.00000
G1 F1800
G1 X36.331 Y130.627 E2.13801
G1 X36.740 Y130.736 E2.16627
G1 X37.105 Y130.947 E2.19440
G1 X37.404 Y131.246 E2.22268
G1 X37.615 Y131.611 E2.25082
G1 X37.724 Y132.020 E2.27907
G1 X37.724 Y132.442 E2.30729
G1 X37.615 Y132.850 E2.33548
G1 X37.404 Y133.215 E2.36368
G1 X37.106 Y133.512 E2.39180
G1 X36.740 Y133.724 E2.42002
G1 X36.331 Y133.833 E2.44828
G1 X35.909 Y133.833 E2.47649
G1 X35.502 Y133.724 E2.50462
G1 X35.136 Y133.512 E2.53287
G1 X34.838 Y133.215 E2.56100
G1 X34.626 Y132.848 E2.58931
G1 X34.493 Y132.353 E2.62358
G1 X34.273 Y130.687 E2.73584
G1 E0.73584 F3000.00000
G92 E0
G1 X46.164 Y129.061 F6000.000
G1 E2.00000 F3000.00000
G1 F1800
G1 X48.231 Y129.061 E2.13807
G1 X48.638 Y129.170 E2.16620
G1 X49.003 Y129.381 E2.19437
G1 X49.301 Y129.679 E2.22254
G1 X49.511 Y130.045 E2.25073
G1 X49.622 Y130.455 E2.27912
G1 X49.622 Y130.874 E2.30711
G1 X49.512 Y131.283 E2.33537
G1 X49.301 Y131.649 E2.36359
G1 X49.003 Y131.947 E2.39176
G1 X48.636 Y132.159 E2.42004
G1 X48.229 Y132.269 E2.44821
G1 X47.808 Y132.269 E2.47633
G1 X47.400 Y132.159 E2.50456
G1 X47.035 Y131.947 E2.53278
G1 X46.734 Y131.648 E2.56111
G1 X46.524 Y131.283 E2.58924
G1 X46.391 Y130.787 E2.62354
G1 X46.172 Y129.121 E2.73581
G1 E0.73581 F3000.00000
G92 E0
G1 X58.063 Y127.495 F6000.000
G1 E2.00000 F3000.00000
G1 F1800
G1 X60.127 Y127.495 E2.13787
G1 X60.535 Y127.604 E2.16605
G1 X60.901 Y127.816 E2.19434
G1 X61.200 Y128.114 E2.22256
G1 X61.411 Y128.479 E2.25072
G1 X61.520 Y128.886 E2.27885
G1 X61.520 Y129.310 E2.30717
G1 X61.411 Y129.717 E2.33530
G1 X61.200 Y130.082 E2.36346
G1 X60.901 Y130.380 E2.39168
G1 X60.535 Y130.592 E2.41996
G1 X60.127 Y130.701 E2.44815
G1 X59.705 Y130.701 E2.47634
G1 X59.297 Y130.592 E2.50452
G1 X58.932 Y130.381 E2.53272
G1 X58.633 Y130.082 E2.56095
G1 X58.421 Y129.717 E2.58915
G1 X58.291 Y129.224 E2.62320
G1 X58.071 Y127.555 E2.73568
G1 E0.73568 F3000.00000
G92 E0
G1 X55.795 Y110.277 F6000.000
G1 E2.00000 F3000.00000
G1 F1800
G1 X55.568 Y108.550 E2.11634
G1 X55.568 Y108.040 E2.15045
G1 X55.678 Y107.631 E2.17872
G1 X55.889 Y107.265 E2.20693
G1 X56.187 Y106.967 E2.23511
G1 X56.552 Y106.756 E2.26328
G1 X56.959 Y106.647 E2.29140
G1 X57.383 Y106.647 E2.31972
G1 X57.790 Y106.756 E2.34785
G1 X58.156 Y106.968 E2.37610
G1 X58.456 Y107.266 E2.40437
G1 X58.666 Y107.631 E2.43250
G1 X58.776 Y108.040 E2.46077
G1 X58.776 Y108.459 E2.48876
G1 X58.665 Y108.869 E2.51715
G1 X58.456 Y109.234 E2.54525
G1 X58.156 Y109.532 E2.57352
G1 X57.790 Y109.744 E2.60177
G1 X55.853 Y110.262 E2.73570
G1 E0.73570 F3000.00000
G92 E0
G1 X43.899 Y111.848 F6000.000
G1 E2.00000 F3000.00000
G1 F1800
G1 X43.670 Y110.118 E2.11661
G1 X43.670 Y109.606 E2.15083
G1 X43.779 Y109.197 E2.17909
G1 X43.990 Y108.832 E2.20723
G1 X44.289 Y108.533 E2.23550
G1 X44.654 Y108.322 E2.26364
G1 X45.063 Y108.213 E2.29190
G1 X45.485 Y108.213 E2.32011
G1 X45.893 Y108.322 E2.34830
G1 X46.258 Y108.533 E2.37650
G1 X46.555 Y108.831 E2.40462
G1 X46.767 Y109.197 E2.43284
G1 X46.876 Y109.606 E2.46110
G1 X46.876 Y110.028 E2.48932
G1 X46.767 Y110.435 E2.51744
G1 X46.555 Y110.801 E2.54569
G1 X46.258 Y111.099 E2.57382
G1 X45.891 Y111.311 E2.60213
G1 X43.956 Y111.833 E2.73600
G1 E0.73600 F3000.00000
G92 E0
G1 X32.000 Y113.410 F6000.000
G1 E2.00000 F3000.00000
G1 F1800
G1 X31.772 Y111.684 E2.11634
G1 X31.772 Y111.173 E2.15044
G1 X31.883 Y110.763 E2.17884
G1 X32.092 Y110.398 E2.20694
G1 X32.393 Y110.099 E2.23527
G1 X32.757 Y109.888 E2.26337
G1 X33.165 Y109.779 E2.29157
G1 X33.588 Y109.779 E2.31989
G1 X33.993 Y109.888 E2.34789
G1 X34.359 Y110.099 E2.37608
G1 X34.658 Y110.398 E2.40436
G1 X34.870 Y110.764 E2.43261
G1 X34.980 Y111.173 E2.46090
G1 X34.980 Y111.592 E2.48889
G1 X34.870 Y112.000 E2.51711
G1 X34.658 Y112.367 E2.54543
G1 X34.360 Y112.664 E2.57355
G1 X33.993 Y112.876 E2.60183
G1 X32.058 Y113.395 E2.73567
G1 E0.73567 F3000.00000
G92 E0
G1 X20.103 Y114.973 F6000.000
G1 E2.00000 F3000.00000
G1 F1800
G1 X19.876 Y113.250 E2.11612
G1 X19.876 Y112.738 E2.15033
G1 X19.985 Y112.330 E2.17852
G1 X20.197 Y111.964 E2.20680
G1 X20.494 Y111.666 E2.23488
G1 X20.859 Y111.455 E2.26311
G1 X21.265 Y111.347 E2.29116
G1 X21.691 Y111.347 E2.31961
G1 X22.098 Y111.455 E2.34773
G1 X22.463 Y111.667 E2.37590
G1 X22.762 Y111.965 E2.40412
G1 X22.973 Y112.330 E2.43232
G1 X23.082 Y112.738 E2.46051
G1 X23.082 Y113.160 E2.48873
G1 X22.973 Y113.569 E2.51698
G1 X22.762 Y113.934 E2.54512
G1 X22.464 Y114.232 E2.57329
G1 X22.100 Y114.441 E2.60136
G1 X20.161 Y114.958 E2.73539
G1 E0.73539 F3000.00000
G92 E0
G1 X80.398 Y118.716 F6000.000
G1 E2.00000 F3000.00000
G1 F1800
G1 X80.473 Y118.381 E2.02295
G1 X83.458 Y110.032 E2.61529
G1 X83.754 Y109.544 E2.65341
G1 X84.191 Y109.121 E2.69401
G1 X84.719 Y108.822 E2.73458
G1 X85.270 Y108.676 E2.77269
G1 X85.555 Y108.658 E2.79171
G1 X114.806 Y108.661 E4.74589
G1 X115.322 Y108.730 E4.78064
G1 X115.884 Y108.957 E4.82114
G1 X116.335 Y109.292 E4.85867
G1 X116.602 Y109.584 E4.88511
G1 X116.875 Y110.039 E4.92054
G1 X119.865 Y118.415 E5.51470
G1 X119.952 Y118.964 E5.55182
G1 X119.896 Y119.569 E5.59243
G1 X119.702 Y120.098 E5.63007
G1 X119.496 Y120.441 E5.65681
G1 X119.114 Y120.854 E5.69437
G1 X118.649 Y121.162 E5.73166
G1 X118.277 Y121.314 E5.75844
G1 X117.765 Y121.411 E5.79332
G1 X82.554 Y121.417 E8.14555
G1 X82.001 Y121.307 E8.18324
G1 X81.501 Y121.068 E8.22029
G1 X81.177 Y120.832 E8.24704
G1 X80.824 Y120.437 E8.28242
G1 X80.652 Y120.150 E8.30480
G1 X80.507 Y119.833 E8.32809
G1 X80.381 Y119.276 E8.36626
G1 X80.397 Y118.776 E8.39964
G1 X80.932 Y118.783 F6000.000
G1 F1800
G1 X80.989 Y118.530 E8.41699
G1 X83.945 Y110.263 E9.00348
G1 X84.176 Y109.881 E9.03337
G1 X84.514 Y109.554 E9.06479
G1 X84.923 Y109.322 E9.09617
G1 X85.357 Y109.207 E9.12614
G1 X85.572 Y109.194 E9.14053
G1 X114.771 Y109.196 E11.09119
G1 X115.184 Y109.252 E11.11906
G1 X115.620 Y109.427 E11.15043
G1 X115.974 Y109.691 E11.17994
G1 X116.170 Y109.906 E11.19938
G1 X116.388 Y110.269 E11.22767
G1 X119.344 Y118.548 E11.81495
G1 X119.413 Y118.981 E11.84423
G1 X119.369 Y119.450 E11.87569
G1 X119.216 Y119.866 E11.90530
G1 X119.065 Y120.118 E11.92494
G1 X118.764 Y120.443 E11.95451
G1 X118.397 Y120.687 E11.98394
G1 X118.125 Y120.797 E12.00358
G1 X117.714 Y120.876 E12.03153
G1 X82.607 Y120.882 E14.37687
G1 X82.171 Y120.795 E14.40654
G1 X81.777 Y120.606 E14.43577
G1 X81.539 Y120.433 E14.45543
G1 X81.257 Y120.118 E14.48365
G1 X81.127 Y119.900 E14.50063
G1 X81.017 Y119.661 E14.51821
G1 X80.918 Y119.224 E14.54810
G1 X80.930 Y118.843 E14.57356
G1 X81.466 Y118.850 F6000.000
G1 F1800
G1 X81.504 Y118.679 E14.58532
G1 X84.431 Y110.494 E15.16597
G1 X84.598 Y110.217 E15.18761
G1 X84.838 Y109.986 E15.20985
G1 X85.127 Y109.822 E15.23205
G1 X85.443 Y109.738 E15.25388
G1 X85.589 Y109.729 E15.26364
G1 X114.735 Y109.732 E17.21078
G1 X115.046 Y109.774 E17.23176
G1 X115.355 Y109.898 E17.25402
G1 X115.613 Y110.090 E17.27550
G1 X115.739 Y110.228 E17.28794
G1 X115.902 Y110.499 E17.30908
G1 X118.823 Y118.681 E17.88949
G1 X118.873 Y118.998 E17.91093
G1 X118.842 Y119.331 E17.93323
G1 X118.731 Y119.634 E17.95481
G1 X118.634 Y119.795 E17.96735
G1 X118.415 Y120.032 E17.98894
G1 X118.146 Y120.211 E18.01050
G1 X117.972 Y120.281 E18.02301
G1 X117.663 Y120.340 E18.04403
G1 X82.660 Y120.346 E20.38247
G1 X82.342 Y120.283 E20.40413
G1 X82.052 Y120.145 E20.42554
G1 X81.900 Y120.034 E20.43811
G1 X81.690 Y119.799 E20.45916
G1 X81.527 Y119.488 E20.48258
G1 X81.456 Y119.173 E20.50420
G1 X81.464 Y118.910 E20.52174
G1 X81.466 Y118.850 F6000.000
G1 E18.52174 F3000.00000
G92 E0
G1 X76.181 Y121.073 F6000.000
G1 E2.00000 F3000.00000
G1 F1800
G1 X21.845 Y128.206 E5.66113
G1 X20.583 Y118.622 E6.30695
G1 X78.259 Y111.048 E10.19306
G1 X79.763 Y107.418 E10.45560
G1 X80.019 Y107.084 E10.48373
G1 X80.356 Y106.825 E10.51208
G1 X80.742 Y106.665 E10.54001
G1 X81.251 Y106.599 E10.57430
G1 X118.747 Y106.599 E13.07926
G1 X119.256 Y106.665 E13.11355
G1 X119.642 Y106.825 E13.14148
G1 X119.979 Y107.084 E13.16983
G1 X120.235 Y107.418 E13.19797
G1 X121.739 Y111.048 E13.46050
G1 X179.415 Y118.621 E17.34661
G1 X178.153 Y128.206 E17.99245
G1 X123.932 Y121.088 E21.64582
G1 X123.768 Y122.963 E21.77154
G1 X123.560 Y123.072 E21.78721
G1 X123.145 Y123.144 E21.81536
G1 X122.816 Y123.159 E21.83735
G1 X76.985 Y123.153 E24.89915
G1 X76.720 Y123.129 E24.91690
G1 X76.388 Y123.051 E24.93968
G1 X76.251 Y122.992 E24.94965
G1 X76.199 Y122.728 E24.96758
G1 X76.182 Y121.133 E25.07415
G1 E23.07415 F3000.00000
G92 E0
G1 X144.203 Y110.277 F6000.000
G1 E2.00000 F3000.00000
G1 F1800
G1 X142.207 Y109.744 E2.13800
G1 X141.841 Y109.532 E2.16628
G1 X141.543 Y109.235 E2.19440
G1 X141.334 Y108.871 E2.22247
G1 X141.224 Y108.460 E2.25083
G1 X141.224 Y108.038 E2.27905
G1 X141.333 Y107.630 E2.30728
G1 X141.543 Y107.265 E2.33538
G1 X141.841 Y106.968 E2.36349
G1 X142.207 Y106.756 E2.39177
G1 X142.615 Y106.647 E2.41996
G1 X143.039 Y106.647 E2.44828
G1 X143.446 Y106.756 E2.47641
G1 X143.811 Y106.967 E2.50457
G1 X144.109 Y107.265 E2.53275
G1 X144.320 Y107.631 E2.56096
G1 X144.430 Y108.040 E2.58923
G1 X144.430 Y108.550 E2.62334
G1 X144.211 Y110.218 E2.73568
G1 E0.73568 F3000.00000
G92 E0
G1 X156.099 Y111.848 F6000.000
G1 E2.00000 F3000.00000
G1 F1800
G1 X154.107 Y111.311 E2.13787
G1 X153.740 Y111.099 E2.16619
G1 X153.443 Y110.801 E2.19431
G1 X153.231 Y110.435 E2.22256
G1 X153.122 Y110.028 E2.25069
G1 X153.122 Y109.606 E2.27891
G1 X153.231 Y109.197 E2.30716
G1 X153.443 Y108.831 E2.33538
G1 X153.740 Y108.533 E2.36351
G1 X154.105 Y108.322 E2.39171
G1 X154.513 Y108.213 E2.41989
G1 X154.935 Y108.213 E2.44811
G1 X155.344 Y108.322 E2.47637
G1 X155.709 Y108.533 E2.50450
G1 X156.008 Y108.832 E2.53278
G1 X156.219 Y109.197 E2.56092
G1 X156.328 Y109.606 E2.58917
G1 X156.328 Y110.118 E2.62340
G1 X156.107 Y111.789 E2.73600
G1 E0.73600 F3000.00000
G92 E0
G1 X167.999 Y113.410 F6000.000
G1 E2.00000 F3000.00000
G1 F1800
G1 X166.003 Y112.876 E2.13799
G1 X165.638 Y112.664 E2.16621
G1 X165.338 Y112.367 E2.19439
G1 X165.129 Y112.002 E2.22255
G1 X165.018 Y111.592 E2.25087
G1 X165.018 Y111.173 E2.27886
G1 X165.129 Y110.763 E2.30726
G1 X165.338 Y110.398 E2.33536
G1 X165.639 Y110.099 E2.36369
G1 X166.003 Y109.888 E2.39182
G1 X166.409 Y109.779 E2.41989
G1 X166.835 Y109.779 E2.44834
G1 X167.241 Y109.888 E2.47641
G1 X167.604 Y110.098 E2.50446
G1 X167.904 Y110.398 E2.53280
G1 X168.116 Y110.764 E2.56105
G1 X168.226 Y111.173 E2.58934
G1 X168.226 Y111.684 E2.62347
G1 X168.007 Y113.350 E2.73572
G1 E0.73572 F3000.00000
G92 E0
G1 X179.895 Y114.973 F6000.000
G1 E2.00000 F3000.00000
G1 F1800
G1 X177.898 Y114.441 E2.13804
G1 X177.534 Y114.232 E2.16610
G1 X177.236 Y113.934 E2.19428
G1 X177.025 Y113.569 E2.22241
G1 X176.916 Y113.160 E2.25067
G1 X176.916 Y112.738 E2.27889
G1 X177.025 Y112.330 E2.30708
G1 X177.236 Y111.965 E2.33527
G1 X177.535 Y111.667 E2.36350
G1 X177.900 Y111.455 E2.39167
G1 X178.307 Y111.347 E2.41979
G1 X178.733 Y111.347 E2.44824
G1 X179.139 Y111.455 E2.47629
G1 X179.504 Y111.667 E2.50452
G1 X179.801 Y111.964 E2.53260
G1 X180.013 Y112.330 E2.56088
G1 X180.122 Y112.738 E2.58906
