; generated by Slic3r 1.3.1-dev on 2020-04-11 at 15:45:07

; external perimeters extrusion width = 0.44mm (4.47mm^3/s)
; perimeters extrusion width = 0.43mm (8.80mm^3/s)
; infill extrusion width = 0.43mm (8.80mm^3/s)
; solid infill extrusion width = 0.43mm (2.51mm^3/s)
; top infill extrusion width = 0.43mm (1.88mm^3/s)

M107
M190 S50 ; set bed temperature and wait for it to be reached
M104 S205 ; set temperature
G28 ; home all axes
G1 Z5 F5000 ; lift nozzle

; Filament gcode

M109 S205 ; set temperature and wait for it to be reached
G21 ; set units to millimeters
G90 ; use absolute coordinates
M82 ; use absolute distances for extrusion
G92 E0
G92 E0
G1 Z0.300 F6000.000
G1 E-2.00000 F3000.00000
G92 E0
G1 X16.164 Y28.419 F6000.000
G1 E2.00000 F3000.00000
G1 F1800
G1 X16.792 Y28.056 E2.04840
G1 X18.508 Y27.346 E2.17249
G1 X19.265 Y27.144 E2.22485
G1 X20.165 Y26.965 E2.28611
G1 X55.858 Y22.266 E4.69121
G1 X56.767 Y22.206 E4.75204
G1 X81.164 Y22.157 E6.38191
G1 X118.836 Y22.157 E8.89860
G1 X143.233 Y22.206 E10.52847
G1 X144.142 Y22.266 E10.58930
G1 X167.938 Y25.398 E12.19276
G1 X179.835 Y26.965 E12.99441
G1 X180.735 Y27.144 E13.05568
G1 X181.492 Y27.346 E13.10805
G1 X183.208 Y28.056 E13.23212
G1 X183.887 Y28.448 E13.28445
G1 X185.347 Y29.570 E13.40746
G1 X185.901 Y30.124 E13.45981
G1 X187.027 Y31.591 E13.58336
G1 X187.418 Y32.269 E13.63565
G1 X188.121 Y33.967 E13.75844
G1 X188.324 Y34.724 E13.81079
G1 X188.566 Y36.558 E13.93435
G1 X188.566 Y227.341 E26.67969
G1 X188.506 Y228.264 E26.74148
G1 X185.761 Y249.113 E28.14633
G1 X185.582 Y250.015 E28.20779
G1 X185.380 Y250.771 E28.26006
G1 X184.670 Y252.485 E28.38400
G1 X184.278 Y253.163 E28.43631
G1 X183.156 Y254.624 E28.55935
G1 X182.602 Y255.178 E28.61170
G1 X181.141 Y256.300 E28.73472
G1 X180.463 Y256.692 E28.78705
G1 X178.747 Y257.402 E28.91113
G1 X177.990 Y257.604 E28.96348
G1 X176.167 Y257.843 E29.08632
G1 X23.833 Y257.843 E39.26305
G1 X22.010 Y257.604 E39.38589
G1 X21.253 Y257.402 E39.43824
G1 X19.537 Y256.692 E39.56232
G1 X18.859 Y256.300 E39.61464
G1 X17.398 Y255.178 E39.73767
G1 X16.844 Y254.624 E39.79001
G1 X15.722 Y253.163 E39.91305
G1 X15.330 Y252.485 E39.96537
G1 X14.620 Y250.771 E40.08930
G1 X14.418 Y250.015 E40.14159
G1 X14.239 Y249.113 E40.20304
G1 X11.494 Y228.264 E41.60788
G1 X11.434 Y227.341 E41.66968
G1 X11.434 Y36.558 E54.41502
G1 X11.676 Y34.724 E54.53858
G1 X11.879 Y33.968 E54.59089
G1 X12.582 Y32.269 E54.71371
G1 X12.973 Y31.591 E54.76601
G1 X14.099 Y30.124 E54.88956
G1 X14.653 Y29.570 E54.94191
G1 X16.113 Y28.449 E55.06485
G1 X16.433 Y28.883 F6000.000
G1 F1800
G1 X17.060 Y28.520 E55.11324
G1 X18.646 Y27.863 E55.22794
G1 X19.403 Y27.661 E55.28029
G1 X20.235 Y27.496 E55.33691
G1 X55.928 Y22.797 E57.74201
G1 X56.768 Y22.741 E57.79823
G1 X81.164 Y22.692 E59.42803
G1 X118.836 Y22.692 E61.94472
G1 X143.232 Y22.741 E63.57452
G1 X144.072 Y22.797 E63.63074
G1 X167.868 Y25.929 E65.23416
G1 X179.765 Y27.496 E66.03584
G1 X180.597 Y27.661 E66.09248
G1 X181.354 Y27.863 E66.14484
G1 X182.940 Y28.520 E66.25952
G1 X183.618 Y28.912 E66.31184
G1 X184.968 Y29.949 E66.42554
G1 X185.522 Y30.503 E66.47789
G1 X186.563 Y31.859 E66.59208
G1 X186.954 Y32.537 E66.64437
G1 X187.604 Y34.106 E66.75786
G1 X187.807 Y34.863 E66.81021
G1 X188.031 Y36.558 E66.92441
G1 X188.031 Y227.341 E79.66974
G1 X187.975 Y228.194 E79.72686
G1 X185.230 Y249.043 E81.13170
G1 X185.064 Y249.877 E81.18851
G1 X184.862 Y250.633 E81.24078
G1 X184.206 Y252.217 E81.35533
G1 X183.814 Y252.895 E81.40765
G1 X182.777 Y254.245 E81.52136
G1 X182.223 Y254.799 E81.57371
G1 X180.873 Y255.836 E81.68742
G1 X180.195 Y256.228 E81.73974
G1 X178.609 Y256.885 E81.85443
G1 X177.852 Y257.087 E81.90677
G1 X176.167 Y257.308 E82.02031
G1 X23.833 Y257.308 E92.19704
G1 X22.148 Y257.087 E92.31058
G1 X21.391 Y256.885 E92.36292
G1 X19.805 Y256.228 E92.47761
G1 X19.127 Y255.836 E92.52993
G1 X17.777 Y254.799 E92.64364
G1 X17.223 Y254.245 E92.69598
G1 X16.186 Y252.895 E92.80969
G1 X15.794 Y252.217 E92.86201
G1 X15.138 Y250.633 E92.97656
G1 X14.936 Y249.877 E93.02885
G1 X14.770 Y249.043 E93.08564
G1 X12.025 Y228.194 E94.49049
G1 X11.969 Y227.341 E94.54760
G1 X11.969 Y36.558 E107.29294
G1 X12.193 Y34.863 E107.40714
G1 X12.396 Y34.107 E107.45945
G1 X13.046 Y32.537 E107.57297
G1 X13.437 Y31.859 E107.62527
G1 X14.478 Y30.503 E107.73946
G1 X15.032 Y29.949 E107.79181
G1 X16.381 Y28.913 E107.90543
G1 E105.90543 F3000.00000
G92 E0
G1 X22.370 Y56.195 F6000.000
G1 E2.00000 F3000.00000
G1 F1800
G1 X24.436 Y56.195 E2.13799
G1 X24.843 Y56.304 E2.16615
G1 X25.209 Y56.515 E2.19433
G1 X25.507 Y56.814 E2.22253
G1 X25.719 Y57.180 E2.25079
G1 X25.828 Y57.587 E2.27894
G1 X25.828 Y58.009 E2.30714
G1 X25.719 Y58.416 E2.33529
G1 X25.507 Y58.782 E2.36356
G1 X25.209 Y59.081 E2.39176
G1 X24.843 Y59.292 E2.41994
G1 X24.436 Y59.401 E2.44810
G1 X24.013 Y59.401 E2.47637
G1 X23.605 Y59.292 E2.50456
G1 X23.240 Y59.081 E2.53271
G1 X22.941 Y58.782 E2.56099
G1 X22.730 Y58.417 E2.58915
G1 X22.598 Y57.922 E2.62334
G1 X22.378 Y56.255 E2.73571
G1 E0.73571 F3000.00000
G92 E0
G1 X34.268 Y54.628 F6000.000
G1 E2.00000 F3000.00000
G1 F1800
G1 X36.332 Y54.628 E2.13793
G1 X36.740 Y54.738 E2.16614
G1 X37.106 Y54.949 E2.19439
G1 X37.405 Y55.247 E2.22259
G1 X37.616 Y55.613 E2.25078
G1 X37.725 Y56.020 E2.27893
G1 X37.725 Y56.443 E2.30720
G1 X37.616 Y56.851 E2.33540
G1 X37.405 Y57.216 E2.36355
G1 X37.106 Y57.514 E2.39177
G1 X36.741 Y57.725 E2.41995
G1 X36.332 Y57.835 E2.44821
G1 X35.911 Y57.835 E2.47636
G1 X35.503 Y57.725 E2.50456
G1 X35.138 Y57.514 E2.53275
G1 X34.839 Y57.216 E2.56098
G1 X34.628 Y56.850 E2.58918
G1 X34.495 Y56.355 E2.62345
G1 X34.275 Y54.688 E2.73578
G1 E0.73578 F3000.00000
G92 E0
G1 X46.165 Y53.062 F6000.000
G1 E2.00000 F3000.00000
G1 F1800
G1 X48.230 Y53.062 E2.13795
G1 X48.639 Y53.172 E2.16621
G1 X49.004 Y53.383 E2.19438
G1 X49.302 Y53.681 E2.22256
G1 X49.513 Y54.046 E2.25073
G1 X49.623 Y54.455 E2.27899
G1 X49.623 Y54.876 E2.30715
G1 X49.513 Y55.284 E2.33538
G1 X49.302 Y55.650 E2.36358
G1 X49.004 Y55.948 E2.39173
G1 X48.638 Y56.159 E2.41998
G1 X48.230 Y56.269 E2.44819
G1 X47.809 Y56.269 E2.47636
G1 X47.401 Y56.159 E2.50457
G1 X47.035 Y55.948 E2.53282
G1 X46.737 Y55.650 E2.56097
G1 X46.526 Y55.284 E2.58918
G1 X46.393 Y54.789 E2.62346
G1 X46.173 Y53.122 E2.73577
G1 E0.73577 F3000.00000
G92 E0
G1 X58.063 Y51.496 F6000.000
G1 E2.00000 F3000.00000
G1 F1800
G1 X60.129 Y51.496 E2.13800
G1 X60.536 Y51.605 E2.16616
G1 X60.902 Y51.816 E2.19434
G1 X61.200 Y52.115 E2.22254
G1 X61.411 Y52.481 E2.25080
G1 X61.521 Y52.889 E2.27900
G1 X61.521 Y53.310 E2.30716
G1 X61.412 Y53.717 E2.33530
G1 X61.200 Y54.083 E2.36357
G1 X60.902 Y54.382 E2.39177
G1 X60.536 Y54.593 E2.41995
G1 X60.129 Y54.702 E2.44811
G1 X59.706 Y54.702 E2.47638
G1 X59.298 Y54.593 E2.50457
G1 X58.933 Y54.382 E2.53272
G1 X58.634 Y54.083 E2.56100
G1 X58.423 Y53.718 E2.58917
G1 X58.291 Y53.223 E2.62336
G1 X58.071 Y51.556 E2.73572
G1 E0.73572 F3000.00000
G92 E0
G1 X55.796 Y34.278 F6000.000
G1 E2.00000 F3000.00000
G1 F1800
G1 X55.569 Y32.552 E2.11629
G1 X55.569 Y32.040 E2.15051
G1 X55.679 Y31.632 E2.17871
G1 X55.890 Y31.267 E2.20690
G1 X56.188 Y30.968 E2.23512
G1 X56.553 Y30.757 E2.26327
G1 X56.961 Y30.648 E2.29147
G1 X57.384 Y30.648 E2.31974
G1 X57.791 Y30.757 E2.34789
G1 X58.157 Y30.968 E2.37612
G1 X58.455 Y31.267 E2.40431
G1 X58.666 Y31.632 E2.43250
G1 X58.776 Y32.040 E2.46070
G1 X58.776 Y32.461 E2.48885
G1 X58.666 Y32.870 E2.51712
G1 X58.455 Y33.235 E2.54529
G1 X58.157 Y33.534 E2.57349
G1 X57.791 Y33.745 E2.60171
G1 X55.854 Y34.263 E2.73565
G1 E0.73565 F3000.00000
G92 E0
G1 X43.899 Y35.846 F6000.000
G1 E2.00000 F3000.00000
G1 F1800
G1 X43.671 Y34.119 E2.11638
G1 X43.671 Y33.607 E2.15061
G1 X43.781 Y33.199 E2.17882
G1 X43.992 Y32.833 E2.20707
G1 X44.290 Y32.535 E2.23522
G1 X44.656 Y32.324 E2.26343
G1 X45.064 Y32.214 E2.29165
G1 X45.485 Y32.214 E2.31981
G1 X45.894 Y32.324 E2.34807
G1 X46.259 Y32.535 E2.37624
G1 X46.557 Y32.833 E2.40442
G1 X46.768 Y33.198 E2.43259
G1 X46.878 Y33.607 E2.46085
G1 X46.878 Y34.028 E2.48901
G1 X46.768 Y34.436 E2.51723
G1 X46.557 Y34.802 E2.54544
G1 X46.259 Y35.100 E2.57359
G1 X45.893 Y35.311 E2.60184
G1 X43.957 Y35.831 E2.73578
G1 E0.73578 F3000.00000
G92 E0
G1 X32.002 Y37.413 F6000.000
G1 E2.00000 F3000.00000
G1 F1800
G1 X31.774 Y35.685 E2.11641
G1 X31.774 Y35.172 E2.15070
G1 X31.883 Y34.764 E2.17890
G1 X32.094 Y34.399 E2.20705
G1 X32.393 Y34.101 E2.23527
G1 X32.758 Y33.890 E2.26346
G1 X33.166 Y33.780 E2.29166
G1 X33.588 Y33.780 E2.31987
G1 X33.996 Y33.890 E2.34806
G1 X34.361 Y34.101 E2.37625
G1 X34.660 Y34.399 E2.40448
G1 X34.871 Y34.764 E2.43263
G1 X34.980 Y35.172 E2.46082
G1 X34.980 Y35.595 E2.48911
G1 X34.871 Y36.003 E2.51730
G1 X34.660 Y36.368 E2.54545
G1 X34.361 Y36.666 E2.57368
G1 X33.996 Y36.877 E2.60187
G1 X32.059 Y37.397 E2.73580
G1 E0.73580 F3000.00000
G92 E0
G1 X20.104 Y38.979 F6000.000
G1 E2.00000 F3000.00000
G1 F1800
G1 X19.876 Y37.251 E2.11641
G1 X19.876 Y36.739 E2.15063
G1 X19.986 Y36.331 E2.17883
G1 X20.196 Y35.966 E2.20702
G1 X20.495 Y35.667 E2.23524
G1 X20.860 Y35.456 E2.26339
G1 X21.268 Y35.347 E2.29159
G1 X21.691 Y35.347 E2.31986
G1 X22.098 Y35.456 E2.34801
G1 X22.464 Y35.667 E2.37624
G1 X22.762 Y35.966 E2.40443
G1 X22.973 Y36.331 E2.43262
G1 X23.083 Y36.739 E2.46082
G1 X23.083 Y37.160 E2.48897
G1 X22.973 Y37.569 E2.51723
G1 X22.762 Y37.934 E2.54541
G1 X22.465 Y38.232 E2.57356
G1 X22.098 Y38.443 E2.60180
G1 X20.162 Y38.963 E2.73576
G1 E0.73576 F3000.00000
G92 E0
G1 X80.400 Y42.710 F6000.000
G1 E2.00000 F3000.00000
G1 F1800
G1 X80.477 Y42.376 E2.02290
G1 X83.459 Y34.035 E2.61463
G1 X83.754 Y33.546 E2.65282
G1 X84.193 Y33.121 E2.69360
G1 X84.687 Y32.842 E2.73150
G1 X85.057 Y32.721 E2.75750
G1 X85.506 Y32.660 E2.78782
G1 X114.805 Y32.662 E4.74512
G1 X115.321 Y32.729 E4.77993
G1 X115.886 Y32.957 E4.82059
G1 X116.339 Y33.296 E4.85839
G1 X116.602 Y33.587 E4.88459
G1 X116.876 Y34.037 E4.91976
G1 X119.866 Y42.417 E5.51418
G1 X119.953 Y42.966 E5.55137
G1 X119.900 Y43.529 E5.58914
G1 X119.787 Y43.906 E5.61544
G1 X119.527 Y44.406 E5.65306
G1 X119.118 Y44.856 E5.69371
G1 X118.609 Y45.189 E5.73431
G1 X118.069 Y45.369 E5.77236
G1 X117.721 Y45.412 E5.79576
G1 X82.955 Y45.405 E8.11837
G1 X82.597 Y45.426 E8.14231
G1 X82.004 Y45.310 E8.18268
G1 X81.494 Y45.065 E8.22046
G1 X81.214 Y44.856 E8.24379
G1 X80.963 Y44.614 E8.26709
G1 X80.641 Y44.150 E8.30480
G1 X80.445 Y43.618 E8.34267
G1 X80.383 Y43.231 E8.36888
G1 X80.398 Y42.770 E8.39969
G1 X80.933 Y42.779 F6000.000
G1 F1800
G1 X80.992 Y42.527 E8.41700
G1 X83.945 Y34.266 E9.00309
G1 X84.177 Y33.882 E9.03303
G1 X84.516 Y33.554 E9.06456
G1 X84.904 Y33.335 E9.09434
G1 X85.177 Y33.245 E9.11354
G1 X85.542 Y33.196 E9.13817
G1 X114.770 Y33.197 E11.09074
G1 X115.184 Y33.251 E11.11864
G1 X115.620 Y33.428 E11.15008
G1 X115.977 Y33.694 E11.17980
G1 X116.171 Y33.908 E11.19911
G1 X116.389 Y34.268 E11.22723
G1 X119.345 Y42.550 E11.81466
G1 X119.414 Y42.983 E11.84401
G1 X119.372 Y43.426 E11.87371
G1 X119.289 Y43.704 E11.89308
G1 X119.084 Y44.097 E11.92268
G1 X118.767 Y44.445 E11.95413
G1 X118.374 Y44.703 E11.98555
G1 X117.950 Y44.844 E12.01541
G1 X117.688 Y44.877 E12.03304
G1 X82.939 Y44.870 E14.35445
G1 X82.633 Y44.887 E14.37493
G1 X82.174 Y44.798 E14.40620
G1 X81.773 Y44.605 E14.43591
G1 X81.562 Y44.447 E14.45348
G1 X81.373 Y44.265 E14.47102
G1 X81.120 Y43.900 E14.50068
G1 X80.966 Y43.482 E14.53046
G1 X80.920 Y43.197 E14.54976
G1 X80.931 Y42.839 E14.57365
G1 X81.467 Y42.849 F6000.000
G1 F1800
G1 X81.507 Y42.678 E14.58536
G1 X84.432 Y34.497 E15.16581
G1 X84.599 Y34.219 E15.18751
G1 X84.839 Y33.987 E15.20979
G1 X85.121 Y33.827 E15.23145
G1 X85.298 Y33.769 E15.24384
G1 X85.579 Y33.731 E15.26280
G1 X114.735 Y33.733 E17.21063
G1 X115.047 Y33.773 E17.23161
G1 X115.355 Y33.898 E17.25385
G1 X115.615 Y34.092 E17.27547
G1 X115.740 Y34.230 E17.28789
G1 X115.903 Y34.499 E17.30896
G1 X118.824 Y42.683 E17.88941
G1 X118.874 Y43.000 E17.91091
G1 X118.844 Y43.323 E17.93255
G1 X118.790 Y43.501 E17.94500
G1 X118.641 Y43.788 E17.96658
G1 X118.417 Y44.034 E17.98882
G1 X118.139 Y44.216 E18.01105
G1 X117.831 Y44.319 E18.03274
G1 X117.655 Y44.341 E18.04459
G1 X82.924 Y44.334 E20.36480
G1 X82.670 Y44.349 E20.38181
G1 X82.344 Y44.285 E20.40399
G1 X82.052 Y44.145 E20.42563
G1 X81.783 Y43.916 E20.44918
G1 X81.599 Y43.651 E20.47077
G1 X81.486 Y43.346 E20.49247
G1 X81.457 Y43.163 E20.50486
G1 X81.465 Y42.909 E20.52184
G1 X81.467 Y42.849 F6000.000
G1 E18.52184 F3000.00000
G92 E0
G1 X76.173 Y45.075 F6000.000
G1 E2.00000 F3000.00000
G1 F1800
G1 X21.845 Y52.207 E5.66053
G1 X20.583 Y42.623 E6.30638
G1 X78.260 Y35.050 E10.19253
G1 X79.764 Y31.419 E10.45514
G1 X80.020 Y31.084 E10.48329
G1 X80.355 Y30.828 E10.51146
G1 X80.745 Y30.666 E10.53968
G1 X81.254 Y30.599 E10.57394
G1 X118.746 Y30.599 E13.07866
G1 X119.255 Y30.666 E13.11292
G1 X119.645 Y30.828 E13.14113
G1 X119.980 Y31.084 E13.16930
G1 X120.236 Y31.419 E13.19745
G1 X121.740 Y35.050 E13.46006
G1 X179.417 Y42.623 E17.34621
G1 X178.155 Y52.207 E17.99206
G1 X123.827 Y45.075 E21.65258
G1 X123.800 Y46.723 E21.76265
G1 X123.751 Y46.976 E21.77990
G1 X123.669 Y47.031 E21.78650
G1 X123.531 Y47.079 E21.79624
G1 X123.148 Y47.145 E21.82225
G1 X122.819 Y47.159 E21.84423
G1 X77.002 Y47.154 E24.90505
G1 X76.567 Y47.104 E24.93432
G1 X76.411 Y47.061 E24.94510
G1 X76.249 Y46.976 E24.95735
G1 X76.200 Y46.723 E24.97459
G1 X76.174 Y45.135 E25.08066
G1 E23.08066 F3000.00000
G92 E0
G1 X144.204 Y34.278 F6000.000
G1 E2.00000 F3000.00000
G1 F1800
G1 X142.209 Y33.745 E2.13795
G1 X141.843 Y33.534 E2.16617
G1 X141.545 Y33.235 E2.19437
G1 X141.334 Y32.870 E2.22254
G1 X141.224 Y32.461 E2.25080
G1 X141.224 Y32.040 E2.27896
G1 X141.334 Y31.632 E2.30715
G1 X141.545 Y31.267 E2.33535
G1 X141.843 Y30.968 E2.36354
G1 X142.209 Y30.757 E2.39177
G1 X142.616 Y30.648 E2.41992
G1 X143.039 Y30.648 E2.44819
G1 X143.447 Y30.757 E2.47638
G1 X143.812 Y30.968 E2.50454
G1 X144.110 Y31.267 E2.53276
G1 X144.321 Y31.632 E2.56095
G1 X144.431 Y32.040 E2.58915
G1 X144.431 Y32.552 E2.62337
G1 X144.212 Y34.218 E2.73565
G1 E0.73565 F3000.00000
G92 E0
G1 X156.101 Y35.846 F6000.000
G1 E2.00000 F3000.00000
G1 F1800
G1 X154.107 Y35.311 E2.13795
G1 X153.741 Y35.100 E2.16620
G1 X153.442 Y34.802 E2.19435
G1 X153.232 Y34.436 E2.22256
G1 X153.122 Y34.028 E2.25078
G1 X153.122 Y33.607 E2.27894
G1 X153.232 Y33.198 E2.30720
G1 X153.442 Y32.833 E2.33537
G1 X153.741 Y32.534 E2.36355
G1 X154.106 Y32.324 E2.39172
G1 X154.515 Y32.214 E2.41998
G1 X154.936 Y32.214 E2.44814
G1 X155.344 Y32.324 E2.47636
G1 X155.710 Y32.534 E2.50457
G1 X156.008 Y32.833 E2.53272
G1 X156.219 Y33.199 E2.56097
G1 X156.329 Y33.607 E2.58918
G1 X156.329 Y34.119 E2.62341
G1 X156.109 Y35.787 E2.73578
G1 E0.73578 F3000.00000
G92 E0
G1 X167.998 Y37.413 F6000.000
G1 E2.00000 F3000.00000
G1 F1800
G1 X166.004 Y36.877 E2.13794
G1 X165.639 Y36.666 E2.16613
G1 X165.340 Y36.368 E2.19436
G1 X165.129 Y36.003 E2.22251
G1 X165.020 Y35.595 E2.25070
G1 X165.020 Y35.172 E2.27899
G1 X165.129 Y34.764 E2.30718
G1 X165.340 Y34.399 E2.33533
G1 X165.639 Y34.101 E2.36355
G1 X166.004 Y33.890 E2.39175
G1 X166.412 Y33.780 E2.41994
G1 X166.834 Y33.780 E2.44815
G1 X167.242 Y33.890 E2.47634
G1 X167.607 Y34.101 E2.50453
G1 X167.906 Y34.399 E2.53276
G1 X168.117 Y34.764 E2.56091
G1 X168.226 Y35.172 E2.58910
G1 X168.226 Y35.685 E2.62340
G1 X168.006 Y37.353 E2.73580
G1 E0.73580 F3000.00000
G92 E0
G1 X179.896 Y38.979 F6000.000
G1 E2.00000 F3000.00000
G1 F1800
G1 X177.902 Y38.443 E2.13796
G1 X177.535 Y38.232 E2.16621
G1 X177.237 Y37.934 E2.19435
G1 X177.027 Y37.569 E2.22253
G1 X176.917 Y37.160 E2.25079
G1 X176.917 Y36.739 E2.27895
G1 X177.027 Y36.331 E2.30714
G1 X177.237 Y35.966 E2.33533
G1 X177.536 Y35.667 E2.36353
G1 X177.902 Y35.456 E2.39175
G1 X178.309 Y35.347 E2.41991
G1 X178.732 Y35.347 E2.44818
G1 X179.140 Y35.456 E2.47637
G1 X179.505 Y35.667 E2.50452
G1 X179.803 Y35.966 E2.53275
G1 X180.014 Y36.331 E2.56094
G1 X180.124 Y36.739 E2.58913
G1 X180.124 Y37.251 E2.62335
G1 X179.904 Y38.919 E2.73575
G1 E0.73575 F3000.00000
G92 E0
G1 X177.630 Y56.195 F6000.000
G1 E2.00000 F3000.00000
G1 F1800
G1 X177.402 Y57.922 E2.11638
G1 X177.270 Y58.417 E2.15056
